(1001)
(T1  D=3.175 CR=0. - ZMIN=13.201 - FLAT END MILL)
G0 G90 G94 G17
G21
G53 G0 Z0.

(ADAPTIVE4)
M5
M9
T1
S16500 M3
G4 P4.
G55
G0 X26.683 Y24.607
Z53.1
Z43.1
Z40.6
G3 X24.118 Y26.193 Z40.435 I-1.283 J0.793 F1016.
X26.683 Y24.607 Z40.269 I1.283 J-0.793
X24.118 Y26.193 Z40.104 I-1.283 J0.793
X26.683 Y24.607 Z39.938 I1.283 J-0.793
X24.118 Y26.193 Z39.773 I-1.283 J0.793
X26.683 Y24.607 Z39.607 I1.283 J-0.793
X24.118 Y26.193 Z39.442 I-1.283 J0.793
X26.683 Y24.607 Z39.276 I1.283 J-0.793
X24.118 Y26.193 Z39.111 I-1.283 J0.793
X26.683 Y24.607 Z38.945 I1.283 J-0.793
X24.118 Y26.193 Z38.78 I-1.283 J0.793
X26.683 Y24.607 Z38.615 I1.283 J-0.793
X24.118 Y26.193 Z38.449 I-1.283 J0.793
X26.683 Y24.607 Z38.284 I1.283 J-0.793
X24.118 Y26.193 Z38.118 I-1.283 J0.793
X26.683 Y24.607 Z37.953 I1.283 J-0.793
X24.118 Y26.193 Z37.787 I-1.283 J0.793
X26.683 Y24.607 Z37.622 I1.283 J-0.793
X24.118 Y26.193 Z37.456 I-1.283 J0.793
X26.683 Y24.607 Z37.291 I1.283 J-0.793
X24.118 Y26.193 Z37.126 I-1.283 J0.793
X26.683 Y24.607 Z36.96 I1.283 J-0.793
X24.118 Y26.193 Z36.795 I-1.283 J0.793
X26.683 Y24.607 Z36.629 I1.283 J-0.793
X26.908 Y25.4 Z36.6 I-1.283 J0.793
X23.892 I-1.508 J0.
X26.908 I1.508 J0.
G1 X26.928 Y26.138
X26.95 Y26.228
X26.965 Y26.377
X26.952 Y26.526
X26.917 Y26.672
X26.862 Y26.812
X26.79 Y26.943
X26.705 Y27.066
X26.607 Y27.18
X26.498 Y27.283
X26.38 Y27.376
X26.254 Y27.458
X26.122 Y27.529
X25.984 Y27.589
X25.837 Y27.64
X25.683 Y27.679
X25.523 Y27.707
X25.358 Y27.722
X25.189 Y27.723
X25.019 Y27.711
X24.847 Y27.685
X24.675 Y27.644
X24.506 Y27.59
X24.339 Y27.521
X24.178 Y27.438
X24.022 Y27.342
X23.873 Y27.233
X23.733 Y27.112
X23.602 Y26.979
X23.482 Y26.835
X23.373 Y26.681
X23.277 Y26.519
X23.194 Y26.348
X23.124 Y26.171
X23.069 Y25.989
X23.028 Y25.802
X23.002 Y25.613
X22.992 Y25.421
X22.997 Y25.229
X23.018 Y25.038
X23.054 Y24.849
X23.105 Y24.663
X23.17 Y24.482
X23.251 Y24.307
X23.345 Y24.138
X23.452 Y23.977
X23.572 Y23.826
X23.704 Y23.684
X23.847 Y23.554
X23.999 Y23.435
X24.161 Y23.329
X24.331 Y23.236
X24.508 Y23.157
X24.691 Y23.093
X24.878 Y23.043
X25.069 Y23.009
X25.262 Y22.99
X25.456 Y22.986
X25.649 Y22.999
X25.841 Y23.026
X26.03 Y23.069
X26.215 Y23.127
X26.395 Y23.2
X26.568 Y23.287
X26.734 Y23.387
X26.891 Y23.501
X27.039 Y23.626
X27.176 Y23.764
X27.302 Y23.911
X27.415 Y24.069
X27.519 Y24.241
X27.631 Y24.464
X27.777 Y24.828
X27.885 Y25.171
X27.949 Y25.454
X27.985 Y25.71
X28. Y25.947
X27.996 Y26.17
X27.975 Y26.383
X27.937 Y26.59
X27.883 Y26.792
X27.814 Y26.989
X27.729 Y27.18
X27.629 Y27.363
X27.514 Y27.538
X27.384 Y27.704
X27.24 Y27.861
X27.082 Y28.008
X26.911 Y28.144
X26.726 Y28.267
X26.53 Y28.376
X26.322 Y28.471
X26.104 Y28.55
X25.877 Y28.612
X25.643 Y28.656
X25.403 Y28.682
X25.159 Y28.688
X24.913 Y28.674
X24.666 Y28.641
X24.42 Y28.587
X24.178 Y28.513
X23.94 Y28.42
X23.709 Y28.306
X23.486 Y28.174
X23.274 Y28.023
X23.073 Y27.854
X22.885 Y27.67
X22.712 Y27.469
X22.554 Y27.255
X22.414 Y27.027
X22.292 Y26.789
X22.19 Y26.54
X22.107 Y26.284
X22.046 Y26.021
X22.005 Y25.753
X21.986 Y25.482
X21.989 Y25.21
X22.013 Y24.939
X22.06 Y24.671
X22.128 Y24.406
X22.217 Y24.148
X22.326 Y23.897
X22.455 Y23.656
X22.604 Y23.426
X22.77 Y23.208
X22.954 Y23.004
X23.153 Y22.816
X23.367 Y22.644
X23.595 Y22.49
X23.834 Y22.354
X24.083 Y22.238
X24.34 Y22.142
X24.605 Y22.068
X24.875 Y22.015
X25.148 Y21.983
X25.423 Y21.974
X25.697 Y21.987
X25.97 Y22.021
X26.24 Y22.078
X26.503 Y22.156
X26.76 Y22.255
X27.008 Y22.374
X27.246 Y22.513
X27.472 Y22.67
X27.685 Y22.846
X27.892 Y23.046
X28.106 Y23.289
X28.308 Y23.56
X28.494 Y23.857
X28.659 Y24.173
X28.796 Y24.499
X28.904 Y24.825
X28.983 Y25.149
X29.034 Y25.469
X29.059 Y25.785
X29.058 Y26.098
X29.033 Y26.405
X28.983 Y26.706
X28.911 Y27.
X28.815 Y27.286
X28.697 Y27.562
X28.557 Y27.827
X28.397 Y28.081
X28.216 Y28.322
X28.015 Y28.548
X27.796 Y28.759
X27.558 Y28.953
X27.304 Y29.129
X27.035 Y29.285
X26.751 Y29.419
X26.455 Y29.532
X26.148 Y29.622
X25.832 Y29.686
X25.51 Y29.726
X25.182 Y29.74
X24.853 Y29.728
X24.523 Y29.688
X24.195 Y29.622
X23.871 Y29.529
X23.554 Y29.41
X23.246 Y29.265
X22.949 Y29.095
X22.664 Y28.9
X22.395 Y28.682
X22.144 Y28.443
X21.911 Y28.182
X21.699 Y27.903
X21.51 Y27.607
X21.344 Y27.295
X21.204 Y26.97
X21.09 Y26.634
X21.003 Y26.29
X20.943 Y25.938
X20.913 Y25.582
X20.91 Y25.225
X20.937 Y24.868
X20.992 Y24.513
X21.076 Y24.164
X21.187 Y23.822
X21.326 Y23.49
X21.491 Y23.17
X21.681 Y22.864
X21.895 Y22.575
X22.132 Y22.303
X22.39 Y22.051
X22.668 Y21.82
X22.963 Y21.612
X23.274 Y21.429
X23.599 Y21.271
X23.936 Y21.14
X24.282 Y21.036
X24.636 Y20.96
X24.994 Y20.913
X25.356 Y20.894
X25.717 Y20.905
X26.077 Y20.945
X26.432 Y21.013
X26.781 Y21.11
X27.12 Y21.235
X27.449 Y21.386
X27.768 Y21.565
X28.08 Y21.775
X28.383 Y22.017
X28.675 Y22.291
X28.952 Y22.595
X29.208 Y22.926
X29.438 Y23.28
X29.639 Y23.651
X29.809 Y24.035
X29.946 Y24.429
X30.05 Y24.829
X30.122 Y25.232
X30.16 Y25.635
X30.166 Y26.038
X30.14 Y26.436
X30.082 Y26.828
X29.993 Y27.213
X29.874 Y27.588
X29.726 Y27.951
X29.55 Y28.3
X29.346 Y28.635
X29.115 Y28.952
X28.859 Y29.251
X28.578 Y29.53
X28.275 Y29.786
X27.951 Y30.018
X27.607 Y30.224
X27.246 Y30.403
X26.869 Y30.554
X26.479 Y30.674
X26.078 Y30.764
X25.669 Y30.821
X25.254 Y30.846
X24.836 Y30.837
X24.417 Y30.794
X24.001 Y30.717
X23.591 Y30.607
X23.189 Y30.463
X22.797 Y30.287
X22.42 Y30.079
X22.058 Y29.84
X21.716 Y29.572
X21.395 Y29.276
X21.098 Y28.954
X20.827 Y28.609
X20.583 Y28.241
X20.37 Y27.854
X20.187 Y27.451
X20.037 Y27.033
X19.921 Y26.603
X19.84 Y26.165
X19.794 Y25.721
X19.784 Y25.273
X19.81 Y24.826
X19.872 Y24.382
X19.969 Y23.944
X20.101 Y23.514
X20.267 Y23.097
X20.467 Y22.693
X20.699 Y22.307
X20.96 Y21.94
X21.251 Y21.595
X21.569 Y21.275
X21.911 Y20.981
X22.276 Y20.715
X22.661 Y20.479
X23.064 Y20.275
X23.482 Y20.104
X23.913 Y19.967
X24.353 Y19.865
X24.801 Y19.799
X25.252 Y19.769
X25.704 Y19.775
X26.154 Y19.817
X26.6 Y19.895
X27.038 Y20.009
X27.468 Y20.159
X27.889 Y20.344
X28.298 Y20.565
X28.694 Y20.822
X29.075 Y21.116
X29.438 Y21.445
X29.778 Y21.808
X30.092 Y22.2
X30.375 Y22.62
X30.623 Y23.061
X30.835 Y23.52
X31.009 Y23.994
X31.144 Y24.478
X31.24 Y24.969
X31.295 Y25.462
X31.31 Y25.956
X31.286 Y26.448
X31.222 Y26.933
X31.121 Y27.41
X30.981 Y27.876
X30.805 Y28.328
X30.594 Y28.765
X30.348 Y29.183
X30.069 Y29.58
X29.759 Y29.955
X29.419 Y30.304
X29.05 Y30.626
X28.656 Y30.918
X28.237 Y31.179
X27.797 Y31.406
X27.338 Y31.598
X26.863 Y31.754
X26.375 Y31.871
X25.876 Y31.949
X25.37 Y31.987
X24.861 Y31.985
X24.351 Y31.941
X23.844 Y31.856
X23.343 Y31.73
X22.851 Y31.564
X22.373 Y31.358
X21.911 Y31.113
X21.469 Y30.831
X21.049 Y30.513
X20.655 Y30.162
X20.289 Y29.778
X19.954 Y29.366
X19.653 Y28.927
X19.387 Y28.464
X19.159 Y27.98
X18.97 Y27.479
X18.821 Y26.962
X18.714 Y26.435
X18.65 Y25.9
X18.629 Y25.361
X18.651 Y24.821
X18.717 Y24.285
X18.826 Y23.754
X18.976 Y23.234
X19.169 Y22.727
X19.401 Y22.237
X19.673 Y21.766
X19.981 Y21.319
X20.324 Y20.898
X20.701 Y20.505
X21.108 Y20.144
X21.542 Y19.817
X22.002 Y19.525
X22.483 Y19.271
X22.984 Y19.057
X23.5 Y18.883
X24.029 Y18.751
X24.566 Y18.662
X25.11 Y18.617
X25.655 Y18.615
X26.198 Y18.657
X26.738 Y18.743
X27.27 Y18.872
X27.794 Y19.045
X28.306 Y19.261
X28.804 Y19.519
X29.286 Y19.821
X29.747 Y20.164
X30.185 Y20.548
X30.594 Y20.97
X30.971 Y21.426
X31.311 Y21.913
X31.612 Y22.427
X31.87 Y22.964
X32.085 Y23.519
X32.254 Y24.088
X32.376 Y24.667
X32.451 Y25.253
X32.479 Y25.84
X32.46 Y26.426
X32.393 Y27.006
X32.281 Y27.578
X32.124 Y28.137
X31.923 Y28.682
X31.678 Y29.208
X31.393 Y29.712
X31.067 Y30.193
X30.704 Y30.646
X30.304 Y31.07
X29.871 Y31.461
X29.406 Y31.817
X28.913 Y32.136
X28.394 Y32.415
X27.852 Y32.652
X27.291 Y32.846
X26.714 Y32.995
X26.125 Y33.097
X25.526 Y33.152
X24.923 Y33.159
X24.319 Y33.117
X23.718 Y33.027
X23.124 Y32.888
X22.541 Y32.701
X21.972 Y32.467
X21.423 Y32.188
X20.896 Y31.864
X20.396 Y31.498
X19.925 Y31.092
X19.487 Y30.648
X19.085 Y30.169
X18.722 Y29.658
X18.4 Y29.119
X18.122 Y28.554
X17.89 Y27.968
X17.706 Y27.365
X17.57 Y26.747
X17.484 Y26.12
X17.449 Y25.487
X17.465 Y24.852
X17.532 Y24.221
X17.649 Y23.596
X17.816 Y22.982
X18.032 Y22.382
X18.296 Y21.802
X18.605 Y21.245
X18.959 Y20.714
X19.354 Y20.212
X19.788 Y19.744
X20.259 Y19.312
X20.763 Y18.919
X21.297 Y18.568
X21.857 Y18.261
X22.441 Y17.999
X23.044 Y17.785
X23.662 Y17.621
X24.291 Y17.506
X24.928 Y17.442
X25.568 Y17.43
X26.208 Y17.469
X26.845 Y17.559
X27.474 Y17.701
X28.094 Y17.894
X28.7 Y18.137
X29.289 Y18.431
X29.858 Y18.774
X30.402 Y19.165
X30.916 Y19.602
X31.398 Y20.082
X31.841 Y20.601
X32.243 Y21.158
X32.601 Y21.746
X32.91 Y22.362
X33.169 Y23.
X33.376 Y23.657
X33.529 Y24.327
X33.627 Y25.005
X33.671 Y25.688
X33.659 Y26.37
X33.594 Y27.047
X33.474 Y27.715
X33.301 Y28.371
X33.077 Y29.01
X32.802 Y29.628
X32.478 Y30.222
X32.108 Y30.789
X31.693 Y31.325
X31.235 Y31.826
X30.738 Y32.29
X30.204 Y32.713
X29.637 Y33.093
X29.039 Y33.428
X28.414 Y33.714
X27.766 Y33.95
X27.099 Y34.133
X26.418 Y34.263
X25.726 Y34.338
X25.027 Y34.358
X24.327 Y34.321
X23.63 Y34.228
X22.941 Y34.078
X22.263 Y33.873
X21.603 Y33.614
X20.963 Y33.302
X20.348 Y32.938
X19.764 Y32.525
X19.213 Y32.065
X18.699 Y31.561
X18.226 Y31.017
X17.798 Y30.435
X17.417 Y29.819
X17.087 Y29.174
X16.808 Y28.503
X16.584 Y27.811
X16.416 Y27.103
X16.306 Y26.382
X16.253 Y25.654
X16.259 Y24.923
X16.324 Y24.194
X16.447 Y23.473
X16.628 Y22.763
X16.865 Y22.069
X17.158 Y21.397
X17.503 Y20.749
X17.9 Y20.131
X18.345 Y19.547
X18.836 Y19.
X19.369 Y18.494
X19.942 Y18.032
X20.549 Y17.618
X21.189 Y17.254
X21.855 Y16.942
X22.545 Y16.684
X23.253 Y16.483
X23.975 Y16.339
X24.706 Y16.254
X25.443 Y16.227
X26.18 Y16.26
X26.912 Y16.352
X27.634 Y16.502
X28.342 Y16.709
X29.032 Y16.972
X29.698 Y17.288
X30.338 Y17.656
X30.947 Y18.072
X31.523 Y18.534
X32.061 Y19.039
X32.559 Y19.583
X33.014 Y20.163
X33.425 Y20.777
X33.788 Y21.419
X34.101 Y22.087
X34.364 Y22.776
X34.574 Y23.484
X34.73 Y24.205
X34.831 Y24.936
X34.877 Y25.672
X34.865 Y26.41
X34.797 Y27.144
X34.673 Y27.872
X34.493 Y28.587
X34.259 Y29.287
X33.973 Y29.967
X33.635 Y30.623
X33.248 Y31.251
X32.814 Y31.848
X32.336 Y32.41
X31.817 Y32.934
X31.259 Y33.417
X30.666 Y33.856
X30.042 Y34.249
X29.39 Y34.594
X28.713 Y34.889
X28.017 Y35.132
X27.304 Y35.323
X26.579 Y35.459
X25.845 Y35.54
X25.108 Y35.564
X24.371 Y35.534
X23.638 Y35.449
X22.913 Y35.31
X22.201 Y35.118
X21.504 Y34.875
X20.827 Y34.581
X20.174 Y34.239
X19.546 Y33.851
X18.948 Y33.419
X18.384 Y32.944
X17.856 Y32.428
X17.368 Y31.874
X16.922 Y31.287
X16.519 Y30.669
X16.161 Y30.024
X15.851 Y29.354
X15.588 Y28.665
X15.375 Y27.958
X15.213 Y27.239
X15.104 Y26.509
X15.049 Y25.773
X15.047 Y25.035
X15.098 Y24.299
X15.202 Y23.569
X15.356 Y22.847
X15.561 Y22.139
X15.816 Y21.446
X16.118 Y20.773
X16.468 Y20.124
X16.866 Y19.502
X17.307 Y18.911
X17.789 Y18.352
X18.31 Y17.829
X18.865 Y17.344
X19.454 Y16.899
X20.072 Y16.496
X20.717 Y16.138
X21.386 Y15.827
X22.077 Y15.567
X22.784 Y15.357
X23.504 Y15.197
X24.234 Y15.089
X24.97 Y15.032
X25.708 Y15.027
X26.444 Y15.073
X27.175 Y15.17
X27.897 Y15.321
X28.607 Y15.524
X29.3 Y15.777
X29.974 Y16.077
X30.626 Y16.422
X31.253 Y16.812
X31.852 Y17.243
X32.42 Y17.713
X32.955 Y18.221
X33.454 Y18.765
X33.913 Y19.342
X34.333 Y19.949
X34.711 Y20.583
X35.046 Y21.24
X35.337 Y21.918
X35.582 Y22.614
X35.782 Y23.324
X35.933 Y24.046
X36.033 Y24.777
X36.083 Y25.514
X36.082 Y26.251
X36.031 Y26.987
X35.931 Y27.718
X35.781 Y28.441
X35.584 Y29.152
X35.339 Y29.848
X35.048 Y30.526
X34.71 Y31.182
X34.327 Y31.813
X33.903 Y32.416
X33.438 Y32.989
X32.936 Y33.53
X32.399 Y34.036
X31.83 Y34.505
X31.23 Y34.935
X30.604 Y35.324
X29.951 Y35.669
X29.277 Y35.968
X28.584 Y36.221
X27.875 Y36.428
X27.155 Y36.587
X26.425 Y36.698
X25.69 Y36.76
X24.953 Y36.773
X24.216 Y36.738
X23.483 Y36.652
X22.757 Y36.517
X22.043 Y36.335
X21.341 Y36.106
X20.656 Y35.833
X19.989 Y35.516
X19.345 Y35.157
X18.724 Y34.758
X18.131 Y34.319
X17.568 Y33.842
X17.039 Y33.328
X16.545 Y32.78
X16.088 Y32.2
X15.669 Y31.593
X15.289 Y30.961
X14.951 Y30.305
X14.654 Y29.63
X14.4 Y28.937
X14.19 Y28.23
X14.028 Y27.51
X13.915 Y26.781
X13.849 Y26.046
X13.831 Y25.308
X13.859 Y24.571
X13.935 Y23.837
X14.056 Y23.109
X14.222 Y22.39
X14.433 Y21.683
X14.688 Y20.991
X14.989 Y20.317
X15.334 Y19.665
X15.72 Y19.036
X16.145 Y18.433
X16.607 Y17.859
X17.105 Y17.314
X17.636 Y16.802
X18.198 Y16.323
X18.788 Y15.881
X19.407 Y15.478
X20.05 Y15.116
X20.715 Y14.797
X21.399 Y14.522
X22.1 Y14.291
X22.814 Y14.104
X23.538 Y13.962
X24.269 Y13.866
X25.005 Y13.815
X25.743 Y13.811
X26.48 Y13.855
X27.212 Y13.947
X27.936 Y14.086
X28.651 Y14.271
X29.352 Y14.5
X30.038 Y14.772
X30.706 Y15.086
X31.353 Y15.44
X31.977 Y15.833
X32.576 Y16.264
X33.147 Y16.732
X33.687 Y17.234
X34.195 Y17.769
X34.669 Y18.335
X35.109 Y18.927
X35.512 Y19.545
X35.877 Y20.186
X36.204 Y20.848
X36.492 Y21.527
X36.737 Y22.223
X36.939 Y22.933
X37.097 Y23.653
X37.21 Y24.382
X37.278 Y25.117
X37.302 Y25.855
X37.28 Y26.592
X37.215 Y27.327
X37.105 Y28.057
X36.952 Y28.778
X36.755 Y29.489
X36.513 Y30.186
X36.229 Y30.867
X35.903 Y31.529
X35.537 Y32.17
X35.132 Y32.787
X34.692 Y33.379
X34.216 Y33.943
X33.708 Y34.477
X33.168 Y34.981
X32.599 Y35.45
X32.002 Y35.883
X31.379 Y36.279
X30.733 Y36.635
X30.067 Y36.952
X29.382 Y37.228
X28.683 Y37.463
X27.971 Y37.656
X27.248 Y37.806
X26.518 Y37.913
X25.783 Y37.975
X25.045 Y37.992
X24.308 Y37.964
X23.574 Y37.891
X22.845 Y37.775
X22.125 Y37.615
X21.415 Y37.414
X20.718 Y37.172
X20.036 Y36.89
X19.372 Y36.569
X18.728 Y36.21
X18.106 Y35.812
X17.509 Y35.378
X16.939 Y34.91
X16.399 Y34.408
X15.889 Y33.874
X15.411 Y33.313
X14.966 Y32.724
X14.556 Y32.111
X14.181 Y31.475
X13.843 Y30.819
X13.545 Y30.144
X13.287 Y29.453
X13.069 Y28.748
X12.894 Y28.031
X12.761 Y27.306
X12.67 Y26.573
X12.622 Y25.837
X12.617 Y25.099
X12.653 Y24.362
X12.731 Y23.629
X12.852 Y22.901
X13.015 Y22.181
X13.22 Y21.472
X13.465 Y20.776
X13.75 Y20.096
X14.075 Y19.434
X14.437 Y18.791
X14.836 Y18.17
X15.269 Y17.573
X15.736 Y17.002
X16.235 Y16.458
X16.764 Y15.944
X17.323 Y15.462
X17.908 Y15.013
X18.518 Y14.598
X19.152 Y14.22
X19.806 Y13.879
X20.479 Y13.576
X21.168 Y13.312
X21.871 Y13.088
X22.585 Y12.904
X23.31 Y12.762
X24.041 Y12.662
X24.776 Y12.605
X25.514 Y12.59
X26.251 Y12.617
X26.986 Y12.688
X27.715 Y12.8
X28.436 Y12.954
X29.148 Y13.148
X29.848 Y13.382
X30.533 Y13.655
X31.202 Y13.968
X31.851 Y14.318
X32.48 Y14.703
X33.087 Y15.124
X33.668 Y15.578
X34.224 Y16.063
X34.751 Y16.579
X35.249 Y17.123
X35.717 Y17.694
X36.153 Y18.289
X36.555 Y18.908
X36.923 Y19.548
X37.254 Y20.207
X37.549 Y20.883
X37.807 Y21.574
X38.025 Y22.279
X38.205 Y22.995
X38.345 Y23.719
X38.445 Y24.45
X38.504 Y25.186
X38.523 Y25.923
X38.501 Y26.661
X38.438 Y27.396
X38.333 Y28.126
X38.189 Y28.85
X38.004 Y29.564
X37.78 Y30.267
X37.517 Y30.956
X37.216 Y31.63
X36.879 Y32.286
X36.505 Y32.922
X36.098 Y33.538
X35.657 Y34.129
X35.183 Y34.695
X34.679 Y35.234
X34.146 Y35.744
X33.586 Y36.223
X32.999 Y36.671
X32.389 Y37.086
X31.757 Y37.467
X31.105 Y37.813
X30.436 Y38.122
X29.75 Y38.395
X29.051 Y38.63
X28.339 Y38.825
X27.618 Y38.981
X26.889 Y39.097
X26.155 Y39.172
X25.418 Y39.208
X24.681 Y39.203
X23.944 Y39.158
X23.211 Y39.073
X22.484 Y38.948
X21.764 Y38.785
X21.055 Y38.584
X20.357 Y38.344
X19.673 Y38.067
X19.005 Y37.753
X18.355 Y37.405
X17.724 Y37.022
X17.115 Y36.606
X16.529 Y36.158
X15.968 Y35.678
X15.434 Y35.17
X14.927 Y34.633
X14.45 Y34.071
X14.004 Y33.483
X13.589 Y32.872
X13.208 Y32.241
X12.861 Y31.59
X12.548 Y30.921
X12.271 Y30.237
X12.031 Y29.54
X11.828 Y28.83
X11.663 Y28.111
X11.537 Y27.385
X11.448 Y26.652
X11.4 Y25.916
X11.391 Y25.178
X11.421 Y24.441
X11.489 Y23.706
X11.597 Y22.976
X11.742 Y22.253
X11.925 Y21.538
X12.145 Y20.834
X12.402 Y20.142
X12.695 Y19.465
X13.023 Y18.804
X13.386 Y18.162
X13.783 Y17.54
X14.213 Y16.94
X14.673 Y16.363
X15.163 Y15.812
X15.681 Y15.286
X16.226 Y14.789
X16.796 Y14.321
X17.39 Y13.883
X18.006 Y13.477
X18.643 Y13.104
X19.298 Y12.765
X19.97 Y12.461
X20.658 Y12.194
X21.359 Y11.963
X22.071 Y11.77
X22.792 Y11.614
X23.52 Y11.496
X24.254 Y11.416
X24.99 Y11.374
X25.728 Y11.371
X26.465 Y11.407
X27.199 Y11.481
X27.929 Y11.594
X28.651 Y11.745
X29.364 Y11.935
X30.066 Y12.161
X30.756 Y12.423
X31.431 Y12.721
X32.09 Y13.053
X32.731 Y13.418
X33.352 Y13.815
X33.953 Y14.244
X34.531 Y14.703
X35.085 Y15.19
X35.612 Y15.706
X36.113 Y16.248
X36.585 Y16.815
X37.028 Y17.405
X37.441 Y18.017
X37.822 Y18.648
X38.172 Y19.298
X38.488 Y19.964
X38.771 Y20.646
X39.019 Y21.341
X39.232 Y22.047
X39.41 Y22.763
X39.55 Y23.488
X39.652 Y24.218
X39.718 Y24.953
X39.746 Y25.69
X39.736 Y26.428
X39.69 Y27.165
X39.606 Y27.898
X39.485 Y28.625
X39.328 Y29.346
X39.134 Y30.058
X38.905 Y30.76
X38.64 Y31.448
X38.34 Y32.122
X38.005 Y32.78
X37.638 Y33.42
X37.239 Y34.04
X36.808 Y34.639
X36.348 Y35.216
X35.859 Y35.769
X35.344 Y36.296
X34.802 Y36.797
X34.236 Y37.271
X33.647 Y37.715
X33.036 Y38.129
X32.404 Y38.51
X31.754 Y38.859
X31.087 Y39.175
X30.406 Y39.457
X29.71 Y39.704
X29.004 Y39.916
X28.287 Y40.092
X27.563 Y40.232
X26.832 Y40.336
X26.098 Y40.404
X25.361 Y40.435
X24.623 Y40.428
X23.886 Y40.384
X23.153 Y40.303
X22.425 Y40.185
X21.703 Y40.032
X20.99 Y39.843
X20.287 Y39.619
X19.595 Y39.361
X18.918 Y39.069
X18.255 Y38.745
X17.609 Y38.389
X16.981 Y38.001
X16.373 Y37.584
X15.786 Y37.136
X15.224 Y36.659
X14.685 Y36.154
X14.172 Y35.624
X13.685 Y35.07
X13.226 Y34.492
X12.796 Y33.892
X12.396 Y33.273
X12.025 Y32.635
X11.687 Y31.979
X11.38 Y31.308
X11.105 Y30.623
X10.865 Y29.926
X10.66 Y29.217
X10.491 Y28.499
X10.356 Y27.773
X10.257 Y27.042
X10.194 Y26.307
X10.166 Y25.57
X10.175 Y24.832
X10.219 Y24.096
X10.298 Y23.362
X10.412 Y22.633
X10.561 Y21.911
X10.745 Y21.196
X10.964 Y20.492
X11.218 Y19.799
X11.505 Y19.119
X11.824 Y18.454
X12.176 Y17.805
X12.559 Y17.174
X12.971 Y16.563
X13.413 Y15.972
X13.883 Y15.403
X14.379 Y14.857
X14.901 Y14.335
X15.447 Y13.839
X16.017 Y13.371
X16.609 Y12.931
X17.222 Y12.52
X17.854 Y12.14
X18.504 Y11.791
X19.17 Y11.473
X19.851 Y11.189
X20.545 Y10.937
X21.25 Y10.719
X21.964 Y10.535
X22.687 Y10.386
X23.416 Y10.271
X24.149 Y10.192
X24.886 Y10.149
X25.623 Y10.142
X26.361 Y10.17
X27.096 Y10.234
X27.827 Y10.334
X28.552 Y10.469
X29.27 Y10.638
X29.98 Y10.841
X30.678 Y11.079
X31.365 Y11.348
X32.038 Y11.65
X32.696 Y11.984
X33.338 Y12.348
X33.961 Y12.744
X34.564 Y13.168
X35.147 Y13.62
X35.708 Y14.099
X36.246 Y14.605
X36.759 Y15.135
X37.247 Y15.688
X37.709 Y16.263
X38.144 Y16.859
X38.551 Y17.475
X38.929 Y18.109
X39.277 Y18.759
X39.594 Y19.425
X39.88 Y20.105
X40.133 Y20.798
X40.354 Y21.502
X40.542 Y22.216
X40.697 Y22.937
X40.817 Y23.665
X40.904 Y24.398
X40.956 Y25.134
X40.974 Y25.871
X40.957 Y26.609
X40.907 Y27.345
X40.822 Y28.078
X40.703 Y28.806
X40.548 Y29.528
X40.361 Y30.241
X40.14 Y30.945
X39.886 Y31.638
X39.6 Y32.318
X39.282 Y32.984
X38.934 Y33.634
X38.555 Y34.268
X38.148 Y34.883
X37.712 Y35.478
X37.25 Y36.053
X36.761 Y36.606
X36.246 Y37.134
X35.707 Y37.638
X35.145 Y38.116
X34.561 Y38.568
X33.957 Y38.991
X33.334 Y39.386
X32.693 Y39.752
X32.036 Y40.087
X31.364 Y40.392
X30.679 Y40.665
X29.982 Y40.907
X29.274 Y41.116
X28.558 Y41.292
X27.834 Y41.434
X27.104 Y41.542
X26.37 Y41.616
X25.633 Y41.656
X24.895 Y41.662
X24.158 Y41.634
X23.423 Y41.571
X22.691 Y41.475
X21.965 Y41.346
X21.245 Y41.184
X20.533 Y40.989
X19.831 Y40.763
X19.14 Y40.504
X18.462 Y40.214
X17.797 Y39.893
X17.148 Y39.543
X16.516 Y39.163
X15.901 Y38.755
X15.306 Y38.318
X14.731 Y37.856
X14.178 Y37.367
X13.648 Y36.854
X13.142 Y36.317
X12.66 Y35.759
X12.204 Y35.179
X11.774 Y34.579
X11.373 Y33.96
X11. Y33.323
X10.656 Y32.671
X10.341 Y32.003
X10.057 Y31.322
X9.804 Y30.629
X9.583 Y29.925
X9.393 Y29.212
X9.236 Y28.491
X9.112 Y27.764
X9.02 Y27.032
X8.961 Y26.297
X8.935 Y25.559
X8.943 Y24.821
X8.984 Y24.085
X9.059 Y23.351
X9.166 Y22.621
X9.305 Y21.896
X9.477 Y21.179
X9.681 Y20.469
X9.916 Y19.77
X10.183 Y19.082
X10.48 Y18.407
X10.807 Y17.746
X11.164 Y17.1
X11.548 Y16.47
X11.961 Y15.858
X12.401 Y15.266
X12.868 Y14.695
X13.359 Y14.145
X13.875 Y13.617
X14.413 Y13.112
X14.974 Y12.633
X15.556 Y12.179
X16.157 Y11.751
X16.777 Y11.351
X17.414 Y10.978
X18.067 Y10.635
X18.734 Y10.321
X19.415 Y10.037
X20.109 Y9.785
X20.813 Y9.564
X21.526 Y9.375
X22.247 Y9.218
X22.974 Y9.092
X23.706 Y9.
X24.441 Y8.94
X25.179 Y8.914
X25.916 Y8.92
X26.653 Y8.959
X27.387 Y9.031
X28.118 Y9.135
X28.843 Y9.272
X29.561 Y9.441
X30.271 Y9.642
X30.971 Y9.875
X31.66 Y10.139
X32.337 Y10.432
X33. Y10.755
X33.649 Y11.107
X34.281 Y11.487
X34.896 Y11.895
X35.493 Y12.328
X36.071 Y12.788
X36.627 Y13.272
X37.163 Y13.78
X37.675 Y14.31
X38.164 Y14.863
X38.628 Y15.436
X39.067 Y16.03
X39.48 Y16.641
X39.866 Y17.27
X40.225 Y17.914
X40.556 Y18.574
X40.857 Y19.247
X41.13 Y19.933
X41.373 Y20.63
X41.586 Y21.336
X41.768 Y22.051
X41.919 Y22.773
X42.039 Y23.501
X42.126 Y24.234
X42.181 Y24.97
X42.205 Y25.707
X42.196 Y26.445
X42.155 Y27.181
X42.083 Y27.916
X41.979 Y28.646
X41.843 Y29.371
X41.676 Y30.09
X41.477 Y30.801
X41.249 Y31.502
X40.99 Y32.193
X40.701 Y32.872
X40.383 Y33.538
X40.036 Y34.189
X39.66 Y34.824
X39.258 Y35.442
X38.829 Y36.043
X38.375 Y36.624
X37.896 Y37.185
X37.393 Y37.725
X36.867 Y38.242
X36.319 Y38.737
X35.75 Y39.207
X35.162 Y39.652
X34.555 Y40.072
X33.931 Y40.465
X33.29 Y40.831
X32.634 Y41.168
X31.963 Y41.476
X31.28 Y41.755
X30.586 Y42.004
X29.882 Y42.224
X29.168 Y42.413
X28.448 Y42.571
X27.721 Y42.698
X26.989 Y42.793
X26.254 Y42.858
X25.517 Y42.89
X24.779 Y42.891
X24.042 Y42.861
X23.307 Y42.799
X22.575 Y42.705
X21.848 Y42.58
X21.127 Y42.423
X20.413 Y42.237
X19.708 Y42.021
X19.012 Y41.775
X18.328 Y41.499
X17.655 Y41.195
X16.996 Y40.863
X16.352 Y40.504
X15.723 Y40.118
X15.112 Y39.705
X14.518 Y39.267
X13.943 Y38.804
X13.389 Y38.317
X12.857 Y37.807
X12.346 Y37.274
X11.858 Y36.72
X11.394 Y36.147
X10.954 Y35.555
X10.54 Y34.944
X10.151 Y34.317
X9.789 Y33.674
X9.454 Y33.017
X9.147 Y32.346
X8.868 Y31.663
X8.618 Y30.969
X8.397 Y30.265
X8.206 Y29.552
X8.046 Y28.832
X7.917 Y28.105
X7.818 Y27.374
X7.749 Y26.64
X7.712 Y25.903
X7.705 Y25.165
X7.729 Y24.427
X7.783 Y23.692
X7.868 Y22.959
X7.984 Y22.23
X8.129 Y21.507
X8.305 Y20.79
X8.51 Y20.081
X8.745 Y19.382
X9.009 Y18.693
X9.302 Y18.016
X9.624 Y17.352
X9.972 Y16.702
X10.347 Y16.066
X10.749 Y15.447
X11.176 Y14.846
X11.627 Y14.262
X12.103 Y13.698
X12.601 Y13.154
X13.122 Y12.631
X13.663 Y12.13
X14.225 Y11.652
X14.807 Y11.198
X15.407 Y10.769
X16.025 Y10.365
X16.659 Y9.988
X17.308 Y9.638
X17.971 Y9.314
X18.648 Y9.019
X19.335 Y8.752
X20.034 Y8.514
X20.742 Y8.305
X21.457 Y8.126
X22.18 Y7.976
X22.908 Y7.857
X23.64 Y7.767
X24.376 Y7.708
X25.113 Y7.68
X25.851 Y7.684
X26.588 Y7.718
X27.323 Y7.783
X28.054 Y7.878
X28.781 Y8.003
X29.503 Y8.158
X30.217 Y8.343
X30.923 Y8.558
X31.619 Y8.801
X32.305 Y9.073
X32.98 Y9.372
X33.642 Y9.698
X34.289 Y10.052
X34.922 Y10.431
X35.538 Y10.837
X36.137 Y11.268
X36.718 Y11.723
X37.28 Y12.201
X37.822 Y12.701
X38.344 Y13.223
X38.844 Y13.766
X39.321 Y14.328
X39.775 Y14.91
X40.206 Y15.509
X40.612 Y16.124
X40.994 Y16.756
X41.35 Y17.402
X41.68 Y18.062
X41.982 Y18.735
X42.257 Y19.42
X42.504 Y20.115
X42.722 Y20.82
X42.912 Y21.533
X43.074 Y22.253
X43.206 Y22.979
X43.308 Y23.71
X43.381 Y24.444
X43.424 Y25.18
X43.438 Y25.918
X43.422 Y26.656
X43.376 Y27.392
X43.301 Y28.126
X43.196 Y28.856
X43.061 Y29.582
X42.896 Y30.301
X42.702 Y31.013
X42.48 Y31.716
X42.229 Y32.41
X41.95 Y33.093
X41.644 Y33.765
X41.311 Y34.423
X40.952 Y35.067
X40.567 Y35.697
X40.156 Y36.31
X39.722 Y36.906
X39.264 Y37.485
X38.783 Y38.044
X38.28 Y38.584
X37.755 Y39.102
X37.209 Y39.599
X36.644 Y40.073
X36.06 Y40.524
X35.458 Y40.951
X34.84 Y41.354
X34.206 Y41.731
X33.557 Y42.083
X32.895 Y42.408
X32.22 Y42.706
X31.534 Y42.977
X30.837 Y43.22
X30.132 Y43.436
X29.418 Y43.623
X28.697 Y43.781
X27.971 Y43.909
X27.239 Y44.008
X26.505 Y44.077
X25.768 Y44.117
X25.03 Y44.128
X24.293 Y44.109
X23.557 Y44.061
X22.823 Y43.983
X22.093 Y43.876
X21.368 Y43.74
X20.648 Y43.576
X19.936 Y43.383
X19.232 Y43.163
X18.537 Y42.915
X17.852 Y42.64
X17.18 Y42.338
X16.519 Y42.008
X15.872 Y41.653
X15.24 Y41.273
X14.623 Y40.868
X14.023 Y40.439
X13.44 Y39.987
X12.876 Y39.512
X12.331 Y39.015
X11.805 Y38.496
X11.301 Y37.958
X10.818 Y37.4
X10.357 Y36.824
X9.919 Y36.23
X9.505 Y35.62
X9.115 Y34.993
X8.751 Y34.352
X8.412 Y33.697
X8.098 Y33.029
X7.811 Y32.349
X7.551 Y31.658
X7.318 Y30.958
X7.113 Y30.25
X6.936 Y29.533
X6.787 Y28.811
X6.666 Y28.083
X6.574 Y27.351
X6.51 Y26.616
X6.475 Y25.879
X6.469 Y25.141
X6.492 Y24.404
X6.544 Y23.668
X6.625 Y22.934
X6.734 Y22.205
X6.872 Y21.48
X7.038 Y20.761
X7.231 Y20.049
X7.452 Y19.345
X7.701 Y18.65
X7.976 Y17.966
X8.279 Y17.293
X8.607 Y16.632
X8.96 Y15.984
X9.338 Y15.351
X9.741 Y14.732
X10.167 Y14.13
X10.617 Y13.546
X11.09 Y12.979
X11.584 Y12.431
X12.099 Y11.903
X12.635 Y11.395
X13.189 Y10.908
X13.762 Y10.444
X14.353 Y10.002
X14.961 Y9.583
X15.584 Y9.189
X16.222 Y8.819
X16.874 Y8.474
X17.539 Y8.154
X18.216 Y7.86
X18.904 Y7.593
X19.602 Y7.354
X20.309 Y7.142
X21.023 Y6.958
X21.744 Y6.802
X22.471 Y6.674
X23.202 Y6.574
X23.936 Y6.502
X24.673 Y6.459
X25.411 Y6.445
X26.148 Y6.46
X26.885 Y6.503
X27.619 Y6.574
X28.35 Y6.674
X29.077 Y6.802
X29.798 Y6.958
X30.512 Y7.142
X31.219 Y7.354
X31.917 Y7.593
X32.605 Y7.859
X33.283 Y8.152
X33.949 Y8.469
X34.602 Y8.812
X35.242 Y9.18
X35.867 Y9.572
X36.476 Y9.988
X37.069 Y10.426
X37.645 Y10.887
X38.204 Y11.37
X38.743 Y11.873
X39.264 Y12.396
X39.764 Y12.939
X40.242 Y13.5
X40.699 Y14.08
X41.133 Y14.676
X41.545 Y15.288
X41.934 Y15.915
X42.298 Y16.557
X42.639 Y17.211
X42.954 Y17.878
X43.244 Y18.557
X43.508 Y19.246
X43.746 Y19.944
X43.958 Y20.651
X44.143 Y21.365
X44.301 Y22.086
X44.431 Y22.812
X44.534 Y23.543
X44.609 Y24.277
X44.655 Y25.013
X44.674 Y25.751
X44.664 Y26.488
X44.627 Y27.225
X44.563 Y27.96
X44.47 Y28.692
X44.35 Y29.42
X44.202 Y30.143
X44.026 Y30.86
X43.824 Y31.569
X43.595 Y32.271
X43.34 Y32.963
X43.059 Y33.645
X42.752 Y34.316
X42.419 Y34.975
X42.062 Y35.62
X41.68 Y36.251
X41.274 Y36.867
X40.845 Y37.468
X40.395 Y38.052
X39.922 Y38.619
X39.429 Y39.167
X38.915 Y39.697
X38.381 Y40.206
X37.828 Y40.695
X37.258 Y41.163
X36.67 Y41.609
X36.066 Y42.032
X35.446 Y42.433
X34.812 Y42.81
X34.164 Y43.162
X33.502 Y43.489
X32.829 Y43.791
X32.145 Y44.067
X31.451 Y44.318
X30.748 Y44.543
X30.037 Y44.741
X29.32 Y44.912
X28.596 Y45.056
X27.868 Y45.172
X27.135 Y45.261
X26.4 Y45.323
X25.663 Y45.357
X24.925 Y45.363
X24.188 Y45.342
X23.451 Y45.294
X22.718 Y45.217
X21.987 Y45.113
X21.261 Y44.981
X20.541 Y44.823
X19.826 Y44.638
X19.119 Y44.426
X18.421 Y44.189
X17.731 Y43.927
X17.052 Y43.638
X16.384 Y43.325
X15.728 Y42.987
X15.085 Y42.625
X14.456 Y42.24
X13.842 Y41.831
X13.243 Y41.401
X12.66 Y40.948
X12.095 Y40.474
X11.548 Y39.978
X11.02 Y39.463
X10.511 Y38.928
X10.023 Y38.376
X9.555 Y37.805
X9.108 Y37.218
X8.683 Y36.615
X8.28 Y35.997
X7.901 Y35.364
X7.545 Y34.717
X7.213 Y34.058
X6.906 Y33.388
X6.623 Y32.706
X6.365 Y32.015
X6.132 Y31.315
X5.927 Y30.606
X5.747 Y29.891
X5.595 Y29.169
X5.469 Y28.442
X5.37 Y27.711
X5.297 Y26.976
X5.251 Y26.24
X5.233 Y25.503
X5.241 Y24.765
X5.277 Y24.028
X5.339 Y23.293
X5.429 Y22.56
X5.544 Y21.832
X5.687 Y21.108
X5.855 Y20.389
X6.05 Y19.678
X6.271 Y18.974
X6.518 Y18.278
X6.79 Y17.593
X7.088 Y16.918
X7.41 Y16.254
X7.756 Y15.602
X8.125 Y14.964
X8.518 Y14.339
X8.933 Y13.729
X9.37 Y13.135
X9.829 Y12.557
X10.309 Y11.996
X10.808 Y11.453
X11.327 Y10.929
X11.865 Y10.423
X12.42 Y9.938
X12.993 Y9.473
X13.583 Y9.03
X14.189 Y8.609
X14.811 Y8.211
X15.446 Y7.836
X16.094 Y7.484
X16.755 Y7.155
X17.427 Y6.852
X18.11 Y6.572
X18.803 Y6.319
X19.505 Y6.09
X20.214 Y5.888
X20.93 Y5.711
X21.653 Y5.561
X22.38 Y5.436
X23.111 Y5.338
X23.846 Y5.267
X24.582 Y5.223
X25.32 Y5.207
X26.058 Y5.218
X26.794 Y5.255
X27.529 Y5.32
X28.262 Y5.411
X28.99 Y5.528
X29.714 Y5.672
X30.432 Y5.842
X31.143 Y6.038
X31.847 Y6.26
X32.542 Y6.507
X33.228 Y6.779
X33.903 Y7.075
X34.568 Y7.395
X35.221 Y7.739
X35.861 Y8.107
X36.487 Y8.497
X37.098 Y8.911
X37.694 Y9.345
X38.274 Y9.801
X38.837 Y10.278
X39.383 Y10.774
X39.912 Y11.289
X40.421 Y11.823
X40.911 Y12.374
X41.381 Y12.943
X41.831 Y13.528
X42.259 Y14.129
X42.666 Y14.744
X43.051 Y15.373
X43.414 Y16.016
X43.754 Y16.671
X44.07 Y17.337
X44.362 Y18.015
X44.629 Y18.703
X44.872 Y19.4
X45.089 Y20.105
X45.282 Y20.817
X45.45 Y21.535
X45.592 Y22.259
X45.708 Y22.988
X45.798 Y23.72
X45.862 Y24.455
X45.9 Y25.192
X45.911 Y25.93
X45.896 Y26.667
X45.856 Y27.404
X45.789 Y28.139
X45.696 Y28.871
X45.577 Y29.599
X45.431 Y30.322
X45.259 Y31.04
X45.062 Y31.751
X44.84 Y32.454
X44.593 Y33.15
X44.321 Y33.836
X44.026 Y34.512
X43.706 Y35.177
X43.362 Y35.83
X42.996 Y36.47
X42.607 Y37.097
X42.196 Y37.709
X41.763 Y38.307
X41.31 Y38.889
X40.837 Y39.455
X40.343 Y40.004
X39.83 Y40.534
X39.298 Y41.045
X38.748 Y41.537
X38.181 Y42.01
X37.598 Y42.461
X36.999 Y42.893
X36.386 Y43.302
X35.758 Y43.69
X35.117 Y44.055
X34.463 Y44.397
X33.797 Y44.715
X33.121 Y45.01
X32.435 Y45.281
X31.739 Y45.527
X31.036 Y45.749
X30.325 Y45.946
X29.607 Y46.118
X29.407 Y46.158
X29.358 Y46.166
X29.309 Y46.171
X29.261 Y46.172
X22.132
X21.395 Y46.136
X20.662 Y46.052
X19.938 Y45.912
X19.222 Y45.733
X18.515 Y45.521
X17.817 Y45.281
X17.129 Y45.015
X16.451 Y44.724
X15.784 Y44.409
X15.128 Y44.071
X14.485 Y43.71
X13.855 Y43.326
X13.238 Y42.921
X12.637 Y42.494
X12.05 Y42.046
X11.48 Y41.577
X10.927 Y41.089
X10.391 Y40.582
X9.873 Y40.057
X9.373 Y39.514
X8.893 Y38.954
X8.432 Y38.378
X7.991 Y37.786
X7.571 Y37.18
X7.172 Y36.559
X6.795 Y35.925
X6.44 Y35.278
X6.107 Y34.62
X5.798 Y33.95
X5.512 Y33.27
X5.25 Y32.58
X5.013 Y31.881
X4.8 Y31.175
X4.652 Y30.616
X4.638 Y30.554
X4.63 Y30.491
X4.628 Y30.427
Y21.468
X4.664 Y20.733
X4.755 Y20.045
X4.909 Y19.323
X5.109 Y18.613
X5.343 Y17.914
X5.608 Y17.225
X5.898 Y16.547
X6.214 Y15.88
X6.552 Y15.224
X6.913 Y14.581
X7.296 Y13.95
X7.701 Y13.333
X8.127 Y12.731
X8.573 Y12.143
X9.039 Y11.571
X9.525 Y11.016
X10.029 Y10.477
X10.551 Y9.956
X11.091 Y9.452
X11.647 Y8.968
X12.22 Y8.503
X12.81 Y8.059
X13.414 Y7.636
X14.033 Y7.235
X14.665 Y6.855
X15.311 Y6.496
X15.967 Y6.161
X16.635 Y5.847
X17.314 Y5.557
X18.002 Y5.291
X18.698 Y5.048
X19.403 Y4.829
X20.044 Y4.654
X20.109 Y4.639
X20.174 Y4.63
X20.24 Y4.628
X29.338
X30.075 Y4.664
X30.441 Y4.709
X31.169 Y4.83
X31.885 Y5.008
X32.59 Y5.227
X33.284 Y5.476
X33.968 Y5.754
X34.641 Y6.056
X35.303 Y6.381
X35.953 Y6.73
X36.591 Y7.101
X37.216 Y7.494
X37.827 Y7.907
X38.423 Y8.342
X39.004 Y8.796
X39.57 Y9.27
X40.119 Y9.763
X40.651 Y10.275
X41.165 Y10.803
X41.662 Y11.349
X42.139 Y11.911
X42.598 Y12.489
X43.038 Y13.082
X43.457 Y13.689
X43.856 Y14.31
X44.234 Y14.943
X44.591 Y15.589
X44.926 Y16.246
X45.239 Y16.915
X45.529 Y17.593
X45.796 Y18.281
X46.039 Y18.977
X46.139 Y19.297
X46.157 Y19.369
X46.169 Y19.443
X46.172 Y19.518
Y31.022
X46.142 Y31.631
X46.07 Y32.182
X45.918 Y32.89
X45.707 Y33.597
X45.454 Y34.29
X45.168 Y34.971
X44.855 Y35.639
X44.518 Y36.295
X44.157 Y36.939
X43.774 Y37.569
X43.371 Y38.187
X42.946 Y38.791
X42.502 Y39.38
X42.039 Y39.954
X41.556 Y40.512
X41.055 Y41.053
X40.535 Y41.577
X39.999 Y42.084
X39.445 Y42.572
X38.876 Y43.041
X38.292 Y43.491
X37.693 Y43.922
X37.079 Y44.332
X36.452 Y44.721
X35.812 Y45.088
X35.161 Y45.434
X34.497 Y45.758
X33.824 Y46.059
X33.68 Y46.118
X33.589 Y46.148
X33.495 Y46.166
X33.4 Y46.172
X29.261
G3 X29.084 Y45.599 I0.011 J-0.317
G1 X29.141 Y45.557 Z36.608
X29.195 Y45.518 Z36.631
X29.243 Y45.482 Z36.669
X29.284 Y45.452 Z36.72
X29.314 Y45.43 Z36.78
X29.333 Y45.416 Z36.847
X29.34 Y45.411 Z36.917
G0 Z43.1
X45.789 Y29.995
Z37.235
G1 Z36.917 F1016.
X45.793 Y30.002 Z36.847
X45.805 Y30.022 Z36.78
X45.824 Y30.055 Z36.72
X45.85 Y30.098 Z36.669
X45.881 Y30.15 Z36.631
X45.915 Y30.207 Z36.608
X45.951 Y30.268 Z36.6
G3 X46.172 Y31.022 I-1.36 J0.809
G1 Y34.374
X46.152 Y34.787
X46.109 Y35.114
X46.018 Y35.537
X45.863 Y36.057
X45.6 Y36.731
X45.278 Y37.395
X44.918 Y38.039
X44.529 Y38.666
X44.117 Y39.277
X43.683 Y39.874
X43.229 Y40.456
X42.757 Y41.022
X42.266 Y41.574
X41.758 Y42.109
X41.233 Y42.627
X40.692 Y43.129
X40.136 Y43.613
X39.564 Y44.08
X38.978 Y44.528
X38.378 Y44.958
X37.765 Y45.368
X37.139 Y45.758
X36.594 Y46.073
X36.477 Y46.128
X36.352 Y46.161
X36.223 Y46.172
X33.4
G3 X33.223 Y45.599 I0.011 J-0.317
G1 X33.28 Y45.557 Z36.608
X33.334 Y45.518 Z36.631
X33.383 Y45.482 Z36.669
X33.423 Y45.452 Z36.72
X33.454 Y45.43 Z36.78
X33.473 Y45.416 Z36.847
X33.479 Y45.411 Z36.917
G0 Z43.1
X45.789 Y33.347
Z37.235
G1 Z36.917 F1016.
X45.793 Y33.354 Z36.847
X45.805 Y33.374 Z36.78
X45.824 Y33.407 Z36.72
X45.85 Y33.45 Z36.669
X45.881 Y33.502 Z36.631
X45.915 Y33.56 Z36.608
X45.951 Y33.62 Z36.6
G3 X46.172 Y34.374 I-1.36 J0.809
G1 Y37.056
X46.161 Y37.281
X46.128 Y37.537
X46.059 Y37.86
X45.945 Y38.24
X45.756 Y38.726
X45.459 Y39.338
X45.084 Y39.974
X44.671 Y40.584
X44.228 Y41.175
X43.763 Y41.747
X43.278 Y42.303
X42.775 Y42.843
X42.255 Y43.366
X41.719 Y43.874
X41.168 Y44.365
X40.603 Y44.839
X40.023 Y45.296
X39.431 Y45.735
X38.992 Y46.04
X38.861 Y46.113
X38.718 Y46.157
X38.569 Y46.172
X36.223
G3 X36.02 Y45.621 I0.011 J-0.317
G1 X36.045 Y45.598
X45.595 Y36.875
X45.641 Y36.832
G3 X46.172 Y37.056 I0.214 J0.234
G1 Y39.235
X46.161 Y39.465
X46.131 Y39.694
X46.072 Y39.971
X45.979 Y40.279
X45.827 Y40.671
X45.602 Y41.135
X45.255 Y41.723
X44.831 Y42.327
X44.371 Y42.903
X43.884 Y43.458
X43.376 Y43.993
X42.851 Y44.511
X42.31 Y45.013
X41.754 Y45.498
X41.184 Y45.966
X41.117 Y46.017
X40.979 Y46.102
X40.825 Y46.155
X40.664 Y46.172
X38.569
G3 X38.366 Y45.62 I0.011 J-0.317
G1 X38.391 Y45.598
X45.595 Y39.054
X45.642 Y39.011
G3 X46.172 Y39.235 I0.213 J0.235
G1 Y41.246
X46.162 Y41.45
X46.134 Y41.668
X46.084 Y41.898
X46.001 Y42.178
X45.871 Y42.51
X45.681 Y42.903
X45.4 Y43.38
X44.976 Y43.984
X44.505 Y44.552
X44.003 Y45.092
X43.478 Y45.611
X43.082 Y45.977
X42.932 Y46.083
X42.762 Y46.15
X42.58 Y46.172
G3 X42.332 Y45.671 I0.011 J-0.317
G1 X42.391 Y45.588
X45.596 Y41.073
G3 X46.172 Y41.246 I0.259 J0.184
G1 Y43.09
X46.161 Y43.314
X46.137 Y43.501
X46.091 Y43.717
X46.011 Y43.981
X45.9 Y44.268
X45.729 Y44.621
X45.489 Y45.028
X45.13 Y45.538
X44.826 Y45.905
X44.665 Y46.049
X44.47 Y46.141
X44.256 Y46.172
G3 X43.992 Y45.697 I0.011 J-0.317
G1 X44.058 Y45.583
X45.58 Y42.942
G3 X45.855 Y42.783 I0.275 J0.159
X46.172 Y43.09 I0. J0.318
G1 Y44.934
X46.165 Y45.083
X46.138 Y45.267
X46.092 Y45.469
X46.034 Y45.654
X46.011 Y45.71
X45.9 Y45.898
X45.738 Y46.046
X45.541 Y46.14
X45.325 Y46.172
G3 X45.06 Y45.698 I0.011 J-0.317
G1 X45.126 Y45.582
X45.579 Y44.787
G3 X46.172 Y44.934 I0.276 J0.157
G1 Y45.855
X46.168 Y45.897
X46.158 Y45.939
X46.148 Y45.967
X46.135 Y45.995
X46.118 Y46.022
X46.097 Y46.05
X46.066 Y46.082
X46.034 Y46.107
X45.982 Y46.139
X45.956 Y46.151
X45.929 Y46.16
X45.888 Y46.169
X45.846 Y46.172
X40.664
G3 X40.487 Y45.599 I0.011 J-0.317
G1 X40.544 Y45.557 Z36.608
X40.598 Y45.518 Z36.631
X40.646 Y45.482 Z36.669
X40.687 Y45.452 Z36.72
X40.717 Y45.43 Z36.78
X40.736 Y45.416 Z36.847
X40.743 Y45.411 Z36.917
G0 Z43.1
X28.312 Y5.011
Z37.235
G1 Z36.917 F1016.
X28.319 Y5.007 Z36.847
X28.339 Y4.995 Z36.78
X28.371 Y4.976 Z36.72
X28.415 Y4.95 Z36.669
X28.466 Y4.919 Z36.631
X28.524 Y4.885 Z36.608
X28.585 Y4.849 Z36.6
G3 X29.338 Y4.628 I0.809 J1.36
G1 X33.193
X33.54 Y4.645
X33.911 Y4.694
X34.38 Y4.794
X34.965 Y4.969
X35.652 Y5.237
X36.319 Y5.552
X36.969 Y5.902
X37.603 Y6.279
X38.223 Y6.68
X38.828 Y7.102
X39.418 Y7.544
X39.994 Y8.006
X40.555 Y8.485
X41.099 Y8.983
X41.628 Y9.498
X42.14 Y10.029
X42.635 Y10.576
X43.112 Y11.139
X43.571 Y11.716
X44.012 Y12.308
X44.433 Y12.914
X44.835 Y13.533
X45.217 Y14.164
X45.58 Y14.806
X45.921 Y15.46
X46.099 Y15.828
X46.139 Y15.932
X46.164 Y16.04
X46.172 Y16.151
Y19.518
G3 X45.599 Y19.694 I-0.317 J-0.011
G1 X45.557 Y19.637 Z36.608
X45.518 Y19.583 Z36.631
X45.482 Y19.535 Z36.669
X45.452 Y19.494 Z36.72
X45.43 Y19.464 Z36.78
X45.416 Y19.445 Z36.847
X45.411 Y19.438 Z36.917
G0 Z43.1
X32.166 Y5.011
Z37.235
G1 Z36.917 F1016.
X32.173 Y5.007 Z36.847
X32.193 Y4.995 Z36.78
X32.226 Y4.976 Z36.72
X32.269 Y4.95 Z36.669
X32.321 Y4.919 Z36.631
X32.379 Y4.885 Z36.608
X32.439 Y4.849 Z36.6
G3 X33.193 Y4.628 I0.809 J1.36
G1 X35.874
X36.184 Y4.643
X36.454 Y4.678
X36.799 Y4.752
X37.203 Y4.873
X37.724 Y5.076
X38.388 Y5.398
X39.024 Y5.773
X39.638 Y6.182
X40.233 Y6.618
X40.811 Y7.076
X41.373 Y7.554
X41.92 Y8.049
X42.45 Y8.562
X42.965 Y9.091
X43.463 Y9.636
X43.944 Y10.195
X44.408 Y10.768
X44.855 Y11.356
X45.283 Y11.956
X45.694 Y12.569
X46.059 Y13.153
X46.121 Y13.276
X46.16 Y13.409
X46.172 Y13.546
Y16.151
G3 X45.619 Y16.351 I-0.317 J-0.011
G1 X45.598 Y16.328
X35.148 Y4.669
X35.116 Y4.644
X35.078 Y4.632
X35.037 Y4.633
X34.999 Y4.648
X34.969 Y4.675
X34.949 Y4.71
X34.943 Y4.75
X34.951 Y4.79
X34.972 Y4.825
X35.004 Y4.851
X35.042 Y4.864
X35.083 Y4.863
X35.121 Y4.849
G3 X35.874 Y4.628 I0.809 J1.36
G1 X38.22
X38.431 Y4.638
X38.664 Y4.669
X38.954 Y4.731
X39.276 Y4.827
X39.69 Y4.988
X40.183 Y5.227
X40.819 Y5.602
X41.422 Y6.026
X42.001 Y6.483
X42.56 Y6.965
X43.1 Y7.467
X43.624 Y7.987
X44.131 Y8.523
X44.622 Y9.074
X45.096 Y9.639
X45.554 Y10.218
X45.995 Y10.81
X46.038 Y10.871
X46.112 Y11.003
X46.157 Y11.147
X46.172 Y11.297
Y13.546
G3 X45.618 Y13.746 I-0.317 J-0.011
G1 X45.598 Y13.724
X38.039 Y5.206
X37.994 Y5.156
G3 X38.22 Y4.628 I0.237 J-0.211
G1 X40.231
X40.467 Y4.639
X40.685 Y4.668
X40.93 Y4.72
X41.214 Y4.805
X41.562 Y4.941
X41.969 Y5.138
X42.473 Y5.435
X43.076 Y5.859
X43.647 Y6.327
X44.191 Y6.825
X44.715 Y7.344
X45.22 Y7.882
X45.708 Y8.436
X46.002 Y8.789
X46.095 Y8.932
X46.153 Y9.093
X46.172 Y9.262
G3 X45.662 Y9.503 I-0.317 J-0.011
G1 X45.591 Y9.448
X40.055 Y5.201
X40.049 Y5.197
G3 X40.231 Y4.628 I0.193 J-0.252
G1 X42.167
X42.354 Y4.637
X42.552 Y4.663
X42.77 Y4.709
X43.039 Y4.79
X43.338 Y4.906
X43.701 Y5.083
X44.125 Y5.332
X44.66 Y5.708
X45.228 Y6.179
X45.763 Y6.687
X45.966 Y6.898
X46.078 Y7.05
X46.149 Y7.225
X46.172 Y7.411
G3 X45.679 Y7.664 I-0.317 J-0.011
G1 X45.587 Y7.603
X42.002 Y5.209
G3 X42.167 Y4.628 I0.176 J-0.264
G1 X43.918
X44.138 Y4.638
X44.315 Y4.662
X44.531 Y4.708
X44.781 Y4.783
X45.049 Y4.887
X45.387 Y5.051
X45.74 Y5.259
X45.858 Y5.342
X45.989 Y5.46
X46.089 Y5.606
X46.151 Y5.772
X46.172 Y5.948
G3 X45.71 Y6.219 I-0.317 J-0.011
G1 X45.579 Y6.152
X43.784 Y5.227
G3 X43.918 Y4.628 I0.145 J-0.282
G1 X45.594
X45.622
X45.664
X45.814 Y4.635
X45.957 Y4.698
X46.072 Y4.804
X46.147 Y4.942
X46.172 Y5.096
G3 X46.034 Y5.433 I-0.524 J-0.018
X45.328 Y4.782 I-0.353 J-0.325
X45.664 Y4.628 I0.353 J0.325
G1 X45.846
X45.888 Y4.631
X45.929 Y4.64
X45.96 Y4.651
X45.991 Y4.665
X46.021 Y4.684
X46.052 Y4.706
X46.075 Y4.726
X46.097 Y4.75
X46.12 Y4.781
X46.138 Y4.812
X46.152 Y4.843
X46.162 Y4.874
X46.17 Y4.916
X46.172 Y4.958
Y11.297
G3 X45.599 Y11.474 I-0.317 J-0.011
G1 X45.557 Y11.417 Z36.608
X45.518 Y11.363 Z36.631
X45.482 Y11.314 Z36.669
X45.452 Y11.274 Z36.72
X45.43 Y11.243 Z36.78
X45.416 Y11.224 Z36.847
X45.411 Y11.218 Z36.917
G0 Z43.1
X23.159 Y45.789
Z37.235
G1 Z36.917 F1016.
X23.152 Y45.793 Z36.847
X23.131 Y45.805 Z36.78
X23.099 Y45.824 Z36.72
X23.056 Y45.85 Z36.669
X23.004 Y45.881 Z36.631
X22.946 Y45.915 Z36.608
X22.886 Y45.951 Z36.6
G3 X22.132 Y46.172 I-0.809 J-1.36
G1 X17.942
X17.607 Y46.156
X17.211 Y46.104
X16.706 Y45.996
X16.073 Y45.806
X15.385 Y45.538
X14.716 Y45.227
X14.064 Y44.882
X13.426 Y44.511
X12.803 Y44.117
X12.194 Y43.7
X11.599 Y43.263
X11.02 Y42.806
X10.456 Y42.33
X9.909 Y41.835
X9.378 Y41.323
X8.864 Y40.794
X8.367 Y40.248
X7.889 Y39.687
X7.429 Y39.11
X6.988 Y38.518
X6.567 Y37.912
X6.166 Y37.293
X5.786 Y36.66
X5.427 Y36.016
X5.089 Y35.36
X4.773 Y34.693
X4.689 Y34.501
X4.655 Y34.406
X4.634 Y34.307
X4.628 Y34.206
Y30.427
G3 X5.201 Y30.25 I0.317 J0.011
G1 X5.243 Y30.307 Z36.608
X5.282 Y30.362 Z36.631
X5.318 Y30.41 Z36.669
X5.348 Y30.451 Z36.72
X5.37 Y30.481 Z36.78
X5.384 Y30.5 Z36.847
X5.389 Y30.506 Z36.917
G0 Z43.1
X18.969 Y45.789
Z37.235
G1 Z36.917 F1016.
X18.962 Y45.793 Z36.847
X18.942 Y45.805 Z36.78
X18.909 Y45.824 Z36.72
X18.866 Y45.85 Z36.669
X18.814 Y45.881 Z36.631
X18.757 Y45.915 Z36.608
X18.696 Y45.951 Z36.6
G3 X17.942 Y46.172 I-0.809 J-1.36
G1 X15.261
X14.868 Y46.153
X14.59 Y46.116
X14.234 Y46.04
X13.816 Y45.915
X13.275 Y45.704
X12.612 Y45.382
X11.974 Y45.01
X11.359 Y44.604
X10.761 Y44.171
X10.18 Y43.716
X9.616 Y43.241
X9.067 Y42.748
X8.535 Y42.237
X8.019 Y41.709
X7.52 Y41.166
X7.038 Y40.607
X6.574 Y40.034
X6.128 Y39.446
X5.7 Y38.845
X5.291 Y38.231
X4.902 Y37.604
X4.727 Y37.303
X4.672 Y37.185
X4.639 Y37.06
X4.628 Y36.931
Y34.206
G3 X5.201 Y34.029 I0.317 J0.011
G1 X5.243 Y34.086 Z36.608
X5.282 Y34.14 Z36.631
X5.318 Y34.189 Z36.669
X5.348 Y34.229 Z36.72
X5.37 Y34.26 Z36.78
X5.384 Y34.279 Z36.847
X5.389 Y34.285 Z36.917
G0 Z43.1
X16.287 Y45.789
Z37.235
G1 Z36.917 F1016.
X16.281 Y45.793 Z36.847
X16.26 Y45.805 Z36.78
X16.228 Y45.824 Z36.72
X16.185 Y45.85 Z36.669
X16.133 Y45.881 Z36.631
X16.075 Y45.915 Z36.608
X16.015 Y45.951 Z36.6
G3 X15.261 Y46.172 I-0.809 J-1.36
G1 X12.915
X12.582 Y46.156
X12.346 Y46.125
X12.052 Y46.062
X11.723 Y45.964
X11.301 Y45.799
X10.796 Y45.554
X10.16 Y45.18
X9.555 Y44.757
X8.975 Y44.301
X8.415 Y43.82
X7.874 Y43.319
X7.349 Y42.8
X6.842 Y42.265
X6.35 Y41.714
X5.876 Y41.149
X5.419 Y40.57
X4.979 Y39.978
X4.761 Y39.666
X4.688 Y39.534
X4.643 Y39.391
X4.628 Y39.242
Y36.931
G3 X5.182 Y36.731 I0.317 J0.011
G1 X5.202 Y36.754
X13.096 Y45.594
X13.141 Y45.644
G3 X12.915 Y46.172 I-0.237 J0.211
G1 X10.736
X10.54 Y46.163
X10.321 Y46.134
X10.071 Y46.08
X9.784 Y45.995
X9.43 Y45.857
X9.019 Y45.657
X8.507 Y45.356
X7.903 Y44.932
X7.332 Y44.464
X6.787 Y43.967
X6.262 Y43.448
X5.757 Y42.911
X5.268 Y42.358
X4.797 Y41.79
X4.785 Y41.774
X4.699 Y41.635
X4.646 Y41.48
X4.628 Y41.318
G3 X5.141 Y41.079 I0.317 J0.011
G1 X5.209 Y41.133
X10.913 Y45.599
X10.921 Y45.605
G3 X10.736 Y46.172 I-0.196 J0.25
G1 X8.893
X8.633 Y46.16
X8.434 Y46.133
X8.215 Y46.087
X7.946 Y46.006
X7.645 Y45.889
X7.28 Y45.711
X6.853 Y45.46
X6.315 Y45.082
X5.747 Y44.611
X5.211 Y44.104
X4.834 Y43.71
X4.722 Y43.559
X4.651 Y43.384
X4.628 Y43.197
G3 X5.122 Y42.945 I0.317 J0.011
G1 X5.213 Y43.006
X9.059 Y45.592
G3 X8.893 Y46.172 I-0.177 J0.263
G1 X7.049
X6.85 Y46.163
X6.672 Y46.139
X6.457 Y46.093
X6.205 Y46.018
X5.936 Y45.913
X5.597 Y45.749
X5.227 Y45.531
X4.942 Y45.331
X4.811 Y45.212
X4.711 Y45.066
X4.649 Y44.9
X4.628 Y44.725
G3 X5.095 Y44.456 I0.317 J0.011
G1 X5.22 Y44.523
X7.188 Y45.575
G3 X7.049 Y46.172 I-0.15 J0.28
G1 X5.373
X5.217 Y46.165
X5.03 Y46.112
X4.865 Y46.008
X4.737 Y45.862
X4.655 Y45.685
X4.628 Y45.493
G3 X5.149 Y45.261 I0.317 J0.011
G1 X5.207 Y45.31
X5.551 Y45.599
X5.567 Y45.612
G3 X5.373 Y46.172 I-0.204 J0.243
G1 X4.954
X4.912 Y46.169
X4.871 Y46.16
X4.844 Y46.151
X4.818 Y46.139
X4.766 Y46.107
X4.734 Y46.082
X4.703 Y46.05
X4.682 Y46.022
X4.665 Y45.995
X4.652 Y45.967
X4.642 Y45.939
X4.632 Y45.897
X4.628 Y45.855
Y39.242
G3 X5.201 Y39.065 I0.317 J0.011
G1 X5.243 Y39.122 Z36.608
X5.282 Y39.176 Z36.631
X5.318 Y39.225 Z36.669
X5.348 Y39.265 Z36.72
X5.37 Y39.296 Z36.78
X5.384 Y39.314 Z36.847
X5.389 Y39.321 Z36.917
G0 Z43.1
X5.011 Y22.494
Z37.235
G1 Z36.917 F1016.
X5.007 Y22.487 Z36.847
X4.995 Y22.467 Z36.78
X4.976 Y22.435 Z36.72
X4.95 Y22.391 Z36.669
X4.919 Y22.34 Z36.631
X4.885 Y22.282 Z36.608
X4.849 Y22.221 Z36.6
G3 X4.628 Y21.468 I1.36 J-0.809
G1 Y17.613
X4.643 Y17.31
X4.691 Y16.942
X4.789 Y16.485
X4.966 Y15.892
X5.234 Y15.205
X5.55 Y14.538
X5.9 Y13.889
X6.278 Y13.255
X6.68 Y12.636
X7.103 Y12.031
X7.547 Y11.442
X8.01 Y10.868
X8.492 Y10.309
X8.991 Y9.766
X9.509 Y9.24
X10.042 Y8.73
X10.592 Y8.239
X11.158 Y7.765
X11.739 Y7.311
X12.335 Y6.876
X12.945 Y6.46
X13.568 Y6.065
X14.204 Y5.69
X14.851 Y5.336
X15.51 Y5.004
X16.191 Y4.687
X16.285 Y4.654
X16.382 Y4.634
X16.482 Y4.628
X20.24
G3 X20.416 Y5.201 I-0.011 J0.317
G1 X20.359 Y5.243 Z36.608
X20.305 Y5.282 Z36.631
X20.257 Y5.318 Z36.669
X20.216 Y5.348 Z36.72
X20.186 Y5.37 Z36.78
X20.167 Y5.384 Z36.847
X20.16 Y5.389 Z36.917
G0 Z43.1
X5.011 Y18.639
Z37.235
G1 Z36.917 F1016.
X5.007 Y18.632 Z36.847
X4.995 Y18.612 Z36.78
X4.976 Y18.579 Z36.72
X4.95 Y18.536 Z36.669
X4.919 Y18.485 Z36.631
X4.885 Y18.427 Z36.608
X4.849 Y18.366 Z36.6
G3 X4.628 Y17.613 I1.36 J-0.809
G1 Y14.931
X4.64 Y14.675
X4.676 Y14.405
X4.749 Y14.062
X4.87 Y13.659
X5.072 Y13.14
X5.391 Y12.482
X5.765 Y11.846
X6.176 Y11.233
X6.613 Y10.639
X7.072 Y10.061
X7.551 Y9.5
X8.049 Y8.956
X8.564 Y8.427
X9.095 Y7.915
X9.642 Y7.42
X10.204 Y6.942
X10.78 Y6.481
X11.371 Y6.039
X11.975 Y5.616
X12.592 Y5.211
X13.221 Y4.826
X13.398 Y4.725
X13.514 Y4.671
X13.637 Y4.639
X13.765 Y4.628
X16.482
G3 X16.679 Y5.184 I-0.011 J0.317
G1 X16.659 Y5.202
X4.671 Y15.656
X4.645 Y15.687
X4.632 Y15.726
Y15.767
X4.647 Y15.805
X4.674 Y15.836
X4.709 Y15.855
X4.75 Y15.862
X4.79 Y15.854
X4.825 Y15.833
X4.85 Y15.802
X4.864 Y15.763
X4.863 Y15.722
X4.849 Y15.684
G3 X4.628 Y14.931 I1.36 J-0.809
G1 Y12.584
X4.635 Y12.433
X4.666 Y12.201
X4.727 Y11.912
X4.823 Y11.592
X4.983 Y11.18
X5.22 Y10.694
X5.589 Y10.066
X6.013 Y9.462
X6.471 Y8.884
X6.954 Y8.326
X7.458 Y7.787
X7.98 Y7.266
X8.518 Y6.761
X9.071 Y6.272
X9.638 Y5.801
X10.22 Y5.347
X10.814 Y4.91
X11.033 Y4.759
X11.164 Y4.687
X11.306 Y4.642
X11.454 Y4.628
X13.765
G3 X13.962 Y5.185 I-0.011 J0.317
G1 X13.942 Y5.202
X5.206 Y12.766
X5.153 Y12.813
G3 X4.628 Y12.584 I-0.208 J-0.24
G1 Y10.573
X4.636 Y10.405
X4.665 Y10.187
X4.716 Y9.944
X4.801 Y9.661
X4.936 Y9.316
X5.131 Y8.913
X5.424 Y8.415
X5.848 Y7.812
X6.317 Y7.242
X6.816 Y6.698
X7.337 Y6.176
X7.877 Y5.673
X8.433 Y5.188
X8.909 Y4.796
X9.052 Y4.704
X9.211 Y4.647
X9.38 Y4.628
G3 X9.618 Y5.141 I-0.011 J0.317
G1 X9.565 Y5.209
X5.201 Y10.75
X5.194 Y10.758
G3 X4.628 Y10.573 I-0.249 J-0.196
G1 Y8.729
X4.638 Y8.516
X4.664 Y8.322
X4.71 Y8.105
X4.79 Y7.837
X4.905 Y7.542
X5.08 Y7.182
X5.326 Y6.764
X5.696 Y6.238
X6.167 Y5.67
X6.675 Y5.135
X6.993 Y4.832
X7.144 Y4.721
X7.318 Y4.651
X7.504 Y4.628
G3 X7.756 Y5.123 I-0.011 J0.317
G1 X7.695 Y5.213
X5.208 Y8.896
G3 X4.628 Y8.729 I-0.263 J-0.178
G1 Y6.885
X4.635 Y6.735
X4.66 Y6.555
X4.709 Y6.335
X4.785 Y6.087
X4.894 Y5.814
X5.061 Y5.476
X5.283 Y5.105
X5.403 Y4.938
X5.567 Y4.771
X5.775 Y4.664
X6.005 Y4.628
G3 X6.273 Y5.097 I-0.011 J0.317
G1 X6.207 Y5.219
X5.224 Y7.026
G3 X4.628 Y6.885 I-0.279 J-0.152
G1 Y5.285
X4.635 Y5.135
X4.703 Y4.935
X4.836 Y4.772
X5.017 Y4.665
X5.225 Y4.628
G3 X5.459 Y5.146 I-0.011 J0.317
G1 X5.409 Y5.208
X5.201 Y5.462
X5.191 Y5.474
G3 X4.628 Y5.285 I-0.246 J-0.201
G1 Y4.958
X4.63 Y4.916
X4.638 Y4.874
X4.648 Y4.843
X4.662 Y4.812
X4.68 Y4.781
X4.703 Y4.75
X4.725 Y4.726
X4.748 Y4.706
X4.779 Y4.684
X4.809 Y4.665
X4.84 Y4.651
X4.871 Y4.64
X4.912 Y4.631
X4.954 Y4.628
X11.454
G3 X11.76 Y4.925 I-0.011 J0.317
G1 X11.761 Y4.945 Z36.601
X11.747 Y4.998 Z36.609
X11.734 Y5.049 Z36.627
X11.722 Y5.096 Z36.654
X11.691 Y5.132 Z36.694
X11.666 Y5.161 Z36.742
X11.647 Y5.183 Z36.797
X11.635 Y5.196 Z36.856
X11.631 Y5.201 Z36.917
G0 Z43.1
X26.683 Y75.407
Z40.6
G3 X24.117 Y76.993 Z40.435 I-1.283 J0.793 F1016.
X26.683 Y75.407 Z40.269 I1.283 J-0.793
X24.117 Y76.993 Z40.104 I-1.283 J0.793
X26.683 Y75.407 Z39.938 I1.283 J-0.793
X24.117 Y76.993 Z39.773 I-1.283 J0.793
X26.683 Y75.407 Z39.607 I1.283 J-0.793
X24.117 Y76.993 Z39.442 I-1.283 J0.793
X26.683 Y75.407 Z39.276 I1.283 J-0.793
X24.117 Y76.993 Z39.111 I-1.283 J0.793
X26.683 Y75.407 Z38.945 I1.283 J-0.793
X24.117 Y76.993 Z38.78 I-1.283 J0.793
X26.683 Y75.407 Z38.615 I1.283 J-0.793
X24.117 Y76.993 Z38.449 I-1.283 J0.793
X26.683 Y75.407 Z38.284 I1.283 J-0.793
X24.117 Y76.993 Z38.118 I-1.283 J0.793
X26.683 Y75.407 Z37.953 I1.283 J-0.793
X24.117 Y76.993 Z37.787 I-1.283 J0.793
X26.683 Y75.407 Z37.622 I1.283 J-0.793
X24.117 Y76.993 Z37.456 I-1.283 J0.793
X26.683 Y75.407 Z37.291 I1.283 J-0.793
X24.117 Y76.993 Z37.126 I-1.283 J0.793
X26.683 Y75.407 Z36.96 I1.283 J-0.793
X24.117 Y76.993 Z36.795 I-1.283 J0.793
X26.683 Y75.407 Z36.629 I1.283 J-0.793
X26.908 Y76.2 Z36.6 I-1.283 J0.793
X23.892 I-1.508 J0.
X26.908 I1.508 J0.
G1 X26.927 Y76.938
X26.949 Y77.027
X26.964 Y77.176
X26.952 Y77.326
X26.916 Y77.472
X26.861 Y77.611
X26.79 Y77.743
X26.704 Y77.866
X26.606 Y77.98
X26.497 Y78.083
X26.38 Y78.176
X26.254 Y78.258
X26.122 Y78.329
X25.983 Y78.389
X25.837 Y78.44
X25.683 Y78.479
X25.523 Y78.506
X25.358 Y78.521
X25.189 Y78.523
X25.018 Y78.511
X24.846 Y78.485
X24.675 Y78.444
X24.505 Y78.389
X24.339 Y78.321
X24.177 Y78.238
X24.022 Y78.142
X23.873 Y78.033
X23.733 Y77.911
X23.602 Y77.778
X23.482 Y77.634
X23.373 Y77.481
X23.277 Y77.318
X23.193 Y77.148
X23.124 Y76.971
X23.068 Y76.789
X23.028 Y76.602
X23.002 Y76.413
X22.992 Y76.221
X22.997 Y76.029
X23.017 Y75.838
X23.053 Y75.649
X23.104 Y75.463
X23.17 Y75.282
X23.25 Y75.106
X23.344 Y74.938
X23.451 Y74.777
X23.571 Y74.625
X23.703 Y74.484
X23.846 Y74.353
X23.999 Y74.235
X24.161 Y74.129
X24.331 Y74.036
X24.508 Y73.957
X24.69 Y73.892
X24.878 Y73.843
X25.068 Y73.809
X25.261 Y73.79
X25.455 Y73.786
X25.648 Y73.798
X25.84 Y73.826
X26.029 Y73.869
X26.214 Y73.927
X26.394 Y74.
X26.568 Y74.086
X26.733 Y74.187
X26.891 Y74.3
X27.038 Y74.426
X27.175 Y74.563
X27.301 Y74.711
X27.414 Y74.868
X27.519 Y75.041
X27.63 Y75.264
X27.777 Y75.628
X27.884 Y75.971
X27.948 Y76.254
X27.985 Y76.509
X27.999 Y76.746
X27.995 Y76.97
X27.974 Y77.183
X27.937 Y77.39
X27.883 Y77.592
X27.813 Y77.789
X27.728 Y77.979
X27.628 Y78.162
X27.513 Y78.337
X27.384 Y78.504
X27.24 Y78.661
X27.082 Y78.808
X26.91 Y78.944
X26.726 Y79.067
X26.529 Y79.176
X26.321 Y79.271
X26.103 Y79.35
X25.877 Y79.412
X25.643 Y79.456
X25.403 Y79.481
X25.159 Y79.488
X24.913 Y79.474
X24.666 Y79.441
X24.42 Y79.387
X24.177 Y79.313
X23.939 Y79.219
X23.708 Y79.106
X23.486 Y78.973
X23.273 Y78.823
X23.072 Y78.654
X22.884 Y78.469
X22.711 Y78.269
X22.554 Y78.054
X22.414 Y77.827
X22.292 Y77.588
X22.189 Y77.34
X22.107 Y77.083
X22.045 Y76.82
X22.004 Y76.553
X21.985 Y76.282
X21.988 Y76.01
X22.013 Y75.739
X22.059 Y75.47
X22.127 Y75.206
X22.216 Y74.948
X22.326 Y74.697
X22.455 Y74.456
X22.603 Y74.225
X22.77 Y74.008
X22.953 Y73.804
X23.153 Y73.616
X23.367 Y73.444
X23.594 Y73.289
X23.833 Y73.154
X24.082 Y73.038
X24.34 Y72.942
X24.604 Y72.867
X24.874 Y72.814
X25.147 Y72.783
X25.422 Y72.774
X25.697 Y72.786
X25.97 Y72.821
X26.239 Y72.878
X26.503 Y72.956
X26.76 Y73.054
X27.008 Y73.174
X27.245 Y73.312
X27.471 Y73.47
X27.685 Y73.646
X27.891 Y73.846
X28.105 Y74.089
X28.307 Y74.36
X28.494 Y74.657
X28.658 Y74.973
X28.796 Y75.298
X28.903 Y75.625
X28.982 Y75.948
X29.034 Y76.268
X29.058 Y76.585
Y76.897
X29.032 Y77.205
X28.983 Y77.506
X28.91 Y77.8
X28.814 Y78.086
X28.696 Y78.362
X28.557 Y78.627
X28.396 Y78.881
X28.215 Y79.122
X28.015 Y79.348
X27.795 Y79.559
X27.558 Y79.753
X27.304 Y79.928
X27.034 Y80.084
X26.75 Y80.219
X26.454 Y80.332
X26.147 Y80.421
X25.832 Y80.486
X25.509 Y80.526
X25.182 Y80.54
X24.852 Y80.527
X24.522 Y80.488
X24.194 Y80.422
X23.871 Y80.329
X23.554 Y80.21
X23.245 Y80.065
X22.948 Y79.895
X22.664 Y79.7
X22.395 Y79.482
X22.143 Y79.242
X21.91 Y78.982
X21.699 Y78.703
X21.509 Y78.407
X21.344 Y78.095
X21.203 Y77.77
X21.089 Y77.434
X21.002 Y77.089
X20.943 Y76.738
X20.912 Y76.382
X20.91 Y76.025
X20.936 Y75.667
X20.992 Y75.313
X21.075 Y74.964
X21.187 Y74.622
X21.325 Y74.29
X21.49 Y73.97
X21.68 Y73.664
X21.894 Y73.374
X22.131 Y73.102
X22.39 Y72.85
X22.667 Y72.62
X22.963 Y72.412
X23.274 Y72.228
X23.599 Y72.071
X23.936 Y71.939
X24.282 Y71.835
X24.635 Y71.76
X24.994 Y71.712
X25.355 Y71.694
X25.717 Y71.705
X26.076 Y71.745
X26.431 Y71.813
X26.78 Y71.91
X27.12 Y72.035
X27.449 Y72.186
X27.767 Y72.365
X28.079 Y72.575
X28.383 Y72.817
X28.675 Y73.09
X28.951 Y73.395
X29.207 Y73.726
X29.437 Y74.08
X29.638 Y74.451
X29.808 Y74.835
X29.946 Y75.229
X30.05 Y75.628
X30.121 Y76.031
X30.16 Y76.435
X30.165 Y76.837
X30.139 Y77.236
X30.081 Y77.628
X29.993 Y78.013
X29.874 Y78.387
X29.726 Y78.75
X29.549 Y79.1
X29.345 Y79.435
X29.114 Y79.752
X28.858 Y80.051
X28.578 Y80.329
X28.275 Y80.585
X27.951 Y80.817
X27.607 Y81.024
X27.245 Y81.203
X26.869 Y81.354
X26.478 Y81.474
X26.077 Y81.564
X25.668 Y81.621
X25.253 Y81.645
X24.835 Y81.636
X24.417 Y81.594
X24.001 Y81.517
X23.59 Y81.407
X23.188 Y81.263
X22.797 Y81.087
X22.419 Y80.878
X22.058 Y80.64
X21.715 Y80.372
X21.395 Y80.076
X21.097 Y79.754
X20.826 Y79.408
X20.583 Y79.041
X20.369 Y78.654
X20.187 Y78.251
X20.037 Y77.833
X19.921 Y77.403
X19.84 Y76.965
X19.794 Y76.52
X19.784 Y76.073
X19.809 Y75.626
X19.871 Y75.182
X19.968 Y74.744
X20.101 Y74.314
X20.267 Y73.896
X20.467 Y73.493
X20.698 Y73.107
X20.96 Y72.74
X21.251 Y72.395
X21.568 Y72.075
X21.91 Y71.781
X22.275 Y71.515
X22.661 Y71.279
X23.064 Y71.075
X23.482 Y70.904
X23.912 Y70.767
X24.353 Y70.665
X24.8 Y70.599
X25.251 Y70.568
X25.703 Y70.574
X26.154 Y70.617
X26.599 Y70.695
X27.038 Y70.809
X27.468 Y70.959
X27.888 Y71.144
X28.298 Y71.365
X28.693 Y71.622
X29.074 Y71.915
X29.437 Y72.245
X29.778 Y72.607
X30.091 Y73.
X30.374 Y73.419
X30.623 Y73.861
X30.835 Y74.32
X31.009 Y74.794
X31.144 Y75.278
X31.239 Y75.768
X31.294 Y76.262
X31.309 Y76.756
X31.285 Y77.247
X31.222 Y77.733
X31.12 Y78.21
X30.981 Y78.676
X30.805 Y79.128
X30.593 Y79.565
X30.348 Y79.983
X30.069 Y80.38
X29.758 Y80.754
X29.418 Y81.104
X29.05 Y81.425
X28.655 Y81.718
X28.237 Y81.978
X27.797 Y82.206
X27.338 Y82.398
X26.863 Y82.553
X26.374 Y82.671
X25.876 Y82.749
X25.37 Y82.787
X24.86 Y82.784
X24.35 Y82.741
X23.843 Y82.656
X23.342 Y82.53
X22.851 Y82.363
X22.373 Y82.157
X21.911 Y81.913
X21.468 Y81.631
X21.048 Y81.313
X20.654 Y80.961
X20.288 Y80.578
X19.954 Y80.166
X19.652 Y79.727
X19.387 Y79.264
X19.158 Y78.78
X18.969 Y78.278
X18.821 Y77.762
X18.714 Y77.235
X18.65 Y76.7
X18.629 Y76.161
X18.651 Y75.621
X18.716 Y75.084
X18.825 Y74.554
X18.976 Y74.034
X19.168 Y73.527
X19.401 Y73.036
X19.672 Y72.566
X19.981 Y72.119
X20.324 Y71.698
X20.7 Y71.305
X21.107 Y70.944
X21.542 Y70.616
X22.001 Y70.325
X22.483 Y70.071
X22.983 Y69.856
X23.5 Y69.683
X24.028 Y69.551
X24.566 Y69.462
X25.109 Y69.417
X25.654 Y69.415
X26.198 Y69.457
X26.737 Y69.543
X27.27 Y69.672
X27.793 Y69.845
X28.305 Y70.06
X28.804 Y70.319
X29.285 Y70.621
X29.747 Y70.964
X30.184 Y71.348
X30.594 Y71.769
X30.97 Y72.226
X31.31 Y72.713
X31.611 Y73.227
X31.87 Y73.763
X32.084 Y74.319
X32.253 Y74.888
X32.375 Y75.467
X32.451 Y76.052
X32.478 Y76.64
X32.459 Y77.225
X32.393 Y77.806
X32.281 Y78.377
X32.124 Y78.937
X31.922 Y79.481
X31.678 Y80.007
X31.392 Y80.512
X31.067 Y80.993
X30.703 Y81.446
X30.304 Y81.87
X29.87 Y82.261
X29.406 Y82.617
X28.913 Y82.936
X28.394 Y83.215
X27.852 Y83.452
X27.291 Y83.646
X26.714 Y83.795
X26.124 Y83.897
X25.526 Y83.952
X24.923 Y83.959
X24.318 Y83.917
X23.717 Y83.827
X23.123 Y83.688
X22.54 Y83.501
X21.972 Y83.267
X21.422 Y82.988
X20.896 Y82.664
X20.395 Y82.298
X19.924 Y81.891
X19.486 Y81.447
X19.084 Y80.969
X18.721 Y80.458
X18.4 Y79.919
X18.122 Y79.354
X17.89 Y78.768
X17.705 Y78.164
X17.57 Y77.547
X17.484 Y76.92
X17.449 Y76.287
X17.464 Y75.652
X17.531 Y75.02
X17.648 Y74.395
X17.816 Y73.781
X18.032 Y73.182
X18.295 Y72.602
X18.605 Y72.045
X18.958 Y71.513
X19.353 Y71.012
X19.788 Y70.544
X20.258 Y70.112
X20.762 Y69.719
X21.296 Y69.368
X21.857 Y69.06
X22.44 Y68.799
X23.043 Y68.585
X23.661 Y68.42
X24.291 Y68.306
X24.927 Y68.242
X25.568 Y68.229
X26.208 Y68.268
X26.844 Y68.359
X27.474 Y68.501
X28.093 Y68.693
X28.699 Y68.937
X29.289 Y69.231
X29.858 Y69.574
X30.401 Y69.965
X30.916 Y70.402
X31.397 Y70.881
X31.841 Y71.401
X32.243 Y71.957
X32.6 Y72.546
X32.91 Y73.161
X33.169 Y73.8
X33.375 Y74.457
X33.528 Y75.127
X33.627 Y75.805
X33.67 Y76.487
X33.659 Y77.169
X33.593 Y77.847
X33.473 Y78.515
X33.301 Y79.17
X33.076 Y79.809
X32.801 Y80.428
X32.478 Y81.022
X32.107 Y81.589
X31.692 Y82.124
X31.235 Y82.626
X30.738 Y83.09
X30.204 Y83.513
X29.636 Y83.893
X29.038 Y84.228
X28.413 Y84.514
X27.766 Y84.749
X27.099 Y84.933
X26.417 Y85.063
X25.725 Y85.138
X25.027 Y85.157
X24.327 Y85.121
X23.63 Y85.027
X22.94 Y84.878
X22.263 Y84.673
X21.602 Y84.414
X20.962 Y84.101
X20.348 Y83.738
X19.763 Y83.324
X19.212 Y82.865
X18.698 Y82.361
X18.226 Y81.816
X17.798 Y81.235
X17.417 Y80.619
X17.086 Y79.974
X16.808 Y79.303
X16.584 Y78.611
X16.416 Y77.902
X16.305 Y77.182
X16.252 Y76.454
X16.259 Y75.723
X16.323 Y74.994
X16.446 Y74.273
X16.627 Y73.563
X16.865 Y72.869
X17.157 Y72.196
X17.503 Y71.549
X17.899 Y70.931
X18.345 Y70.347
X18.835 Y69.8
X19.369 Y69.294
X19.941 Y68.832
X20.549 Y68.418
X21.188 Y68.054
X21.855 Y67.742
X22.544 Y67.484
X23.252 Y67.283
X23.974 Y67.139
X24.706 Y67.054
X25.442 Y67.027
X26.179 Y67.06
X26.911 Y67.152
X27.634 Y67.302
X28.342 Y67.509
X29.031 Y67.772
X29.698 Y68.088
X30.338 Y68.455
X30.947 Y68.872
X31.522 Y69.334
X32.06 Y69.838
X32.558 Y70.383
X33.014 Y70.963
X33.424 Y71.576
X33.787 Y72.219
X34.101 Y72.887
X34.363 Y73.576
X34.573 Y74.283
X34.73 Y75.004
X34.831 Y75.735
X34.876 Y76.472
X34.865 Y77.209
X34.797 Y77.944
X34.672 Y78.671
X34.493 Y79.387
X34.259 Y80.087
X33.972 Y80.767
X33.634 Y81.423
X33.247 Y82.051
X32.814 Y82.648
X32.336 Y83.21
X31.816 Y83.734
X31.259 Y84.217
X30.666 Y84.656
X30.041 Y85.049
X29.389 Y85.394
X28.713 Y85.689
X28.016 Y85.932
X27.303 Y86.123
X26.578 Y86.259
X25.845 Y86.34
X25.107 Y86.364
X24.37 Y86.334
X23.637 Y86.249
X22.913 Y86.11
X22.2 Y85.918
X21.504 Y85.674
X20.827 Y85.381
X20.173 Y85.039
X19.546 Y84.651
X18.948 Y84.219
X18.383 Y83.744
X17.856 Y83.228
X17.368 Y82.674
X16.922 Y82.087
X16.519 Y81.469
X16.161 Y80.823
X15.85 Y80.154
X15.588 Y79.465
X15.375 Y78.758
X15.212 Y78.038
X15.103 Y77.309
X15.048 Y76.573
X15.047 Y75.835
X15.098 Y75.099
X15.201 Y74.369
X15.356 Y73.647
X15.561 Y72.938
X15.815 Y72.246
X16.118 Y71.573
X16.468 Y70.923
X16.865 Y70.302
X17.307 Y69.71
X17.789 Y69.152
X18.309 Y68.629
X18.865 Y68.144
X19.453 Y67.699
X20.072 Y67.296
X20.717 Y66.938
X21.386 Y66.627
X22.076 Y66.367
X22.783 Y66.157
X23.504 Y65.997
X24.234 Y65.889
X24.969 Y65.832
X25.707 Y65.826
X26.443 Y65.873
X27.175 Y65.97
X27.897 Y66.121
X28.606 Y66.324
X29.3 Y66.577
X29.974 Y66.877
X30.626 Y67.222
X31.252 Y67.611
X31.851 Y68.042
X32.42 Y68.513
X32.955 Y69.021
X33.453 Y69.565
X33.913 Y70.142
X34.332 Y70.749
X34.71 Y71.383
X35.045 Y72.04
X35.336 Y72.718
X35.582 Y73.414
X35.781 Y74.124
X35.932 Y74.846
X36.033 Y75.577
X36.082 Y76.313
X36.081 Y77.051
X36.031 Y77.787
X35.93 Y78.518
X35.781 Y79.241
X35.583 Y79.952
X35.339 Y80.648
X35.048 Y81.326
X34.71 Y81.982
X34.327 Y82.612
X33.902 Y83.215
X33.437 Y83.789
X32.936 Y84.329
X32.399 Y84.835
X31.829 Y85.305
X31.23 Y85.735
X30.603 Y86.124
X29.951 Y86.469
X29.276 Y86.768
X28.583 Y87.021
X27.875 Y87.228
X27.154 Y87.387
X26.425 Y87.497
X25.69 Y87.559
X24.952 Y87.573
X24.215 Y87.538
X23.482 Y87.452
X22.757 Y87.317
X22.042 Y87.134
X21.341 Y86.906
X20.655 Y86.632
X19.989 Y86.315
X19.344 Y85.957
X18.724 Y85.557
X18.13 Y85.119
X17.567 Y84.642
X17.039 Y84.128
X16.545 Y83.579
X16.088 Y83.
X15.669 Y82.393
X15.289 Y81.76
X14.95 Y81.105
X14.653 Y80.429
X14.399 Y79.737
X14.19 Y79.029
X14.028 Y78.309
X13.914 Y77.58
X13.849 Y76.846
X13.83 Y76.108
X13.859 Y75.371
X13.934 Y74.637
X14.055 Y73.909
X14.221 Y73.19
X14.432 Y72.483
X14.688 Y71.791
X14.989 Y71.117
X15.333 Y70.465
X15.719 Y69.836
X16.144 Y69.233
X16.607 Y68.658
X17.105 Y68.114
X17.636 Y67.601
X18.197 Y67.123
X18.788 Y66.681
X19.406 Y66.278
X20.049 Y65.916
X20.714 Y65.597
X21.399 Y65.322
X22.099 Y65.09
X22.813 Y64.903
X23.537 Y64.762
X24.269 Y64.665
X25.005 Y64.615
X25.743 Y64.611
X26.479 Y64.655
X27.211 Y64.747
X27.936 Y64.886
X28.65 Y65.071
X29.352 Y65.3
X30.037 Y65.572
X30.705 Y65.886
X31.352 Y66.24
X31.977 Y66.633
X32.576 Y67.064
X33.146 Y67.532
X33.686 Y68.034
X34.194 Y68.569
X34.669 Y69.134
X35.108 Y69.727
X35.511 Y70.345
X35.877 Y70.986
X36.204 Y71.647
X36.491 Y72.327
X36.736 Y73.023
X36.938 Y73.732
X37.096 Y74.453
X37.209 Y75.182
X37.278 Y75.917
X37.301 Y76.654
X37.28 Y77.392
X37.214 Y78.127
X37.105 Y78.856
X36.952 Y79.578
X36.754 Y80.289
X36.513 Y80.986
X36.228 Y81.667
X35.902 Y82.329
X35.536 Y82.969
X35.132 Y83.587
X34.691 Y84.178
X34.216 Y84.742
X33.707 Y85.277
X33.168 Y85.781
X32.598 Y86.25
X32.001 Y86.683
X31.378 Y87.078
X30.732 Y87.435
X30.066 Y87.752
X29.382 Y88.028
X28.682 Y88.263
X27.97 Y88.456
X27.248 Y88.606
X26.518 Y88.713
X25.783 Y88.775
X25.045 Y88.792
X24.308 Y88.764
X23.573 Y88.691
X22.845 Y88.574
X22.124 Y88.415
X21.415 Y88.214
X20.718 Y87.972
X20.036 Y87.69
X19.372 Y87.369
X18.727 Y87.009
X18.105 Y86.612
X17.509 Y86.178
X16.939 Y85.709
X16.398 Y85.207
X15.888 Y84.674
X15.41 Y84.112
X14.965 Y83.524
X14.555 Y82.91
X14.18 Y82.275
X13.843 Y81.619
X13.545 Y80.944
X13.286 Y80.253
X13.069 Y79.548
X12.893 Y78.831
X12.76 Y78.105
X12.67 Y77.373
X12.622 Y76.637
X12.616 Y75.899
X12.653 Y75.162
X12.731 Y74.428
X12.852 Y73.701
X13.015 Y72.981
X13.219 Y72.272
X13.464 Y71.576
X13.75 Y70.896
X14.074 Y70.233
X14.437 Y69.591
X14.835 Y68.97
X15.269 Y68.373
X15.736 Y67.801
X16.234 Y67.258
X16.764 Y66.744
X17.322 Y66.262
X17.908 Y65.812
X18.518 Y65.398
X19.151 Y65.02
X19.806 Y64.678
X20.478 Y64.376
X21.168 Y64.112
X21.87 Y63.888
X22.585 Y63.704
X23.309 Y63.562
X24.04 Y63.462
X24.776 Y63.405
X25.513 Y63.39
X26.251 Y63.417
X26.985 Y63.487
X27.714 Y63.6
X28.436 Y63.753
X29.148 Y63.948
X29.847 Y64.182
X30.533 Y64.455
X31.201 Y64.768
X31.851 Y65.117
X32.48 Y65.503
X33.086 Y65.923
X33.668 Y66.377
X34.223 Y66.863
X34.751 Y67.379
X35.249 Y67.923
X35.716 Y68.494
X36.152 Y69.089
X36.555 Y69.707
X36.922 Y70.347
X37.254 Y71.006
X37.549 Y71.683
X37.806 Y72.374
X38.025 Y73.079
X38.205 Y73.794
X38.344 Y74.519
X38.444 Y75.25
X38.503 Y75.985
X38.523 Y76.723
X38.501 Y77.46
X38.437 Y78.195
X38.333 Y78.926
X38.188 Y79.649
X38.004 Y80.364
X37.78 Y81.067
X37.517 Y81.756
X37.216 Y82.43
X36.878 Y83.086
X36.505 Y83.722
X36.098 Y84.337
X35.656 Y84.929
X35.183 Y85.495
X34.679 Y86.033
X34.146 Y86.543
X33.585 Y87.023
X32.999 Y87.471
X32.389 Y87.886
X31.757 Y88.267
X31.105 Y88.612
X30.435 Y88.922
X29.75 Y89.195
X29.05 Y89.429
X28.339 Y89.625
X27.617 Y89.78
X26.889 Y89.896
X26.155 Y89.972
X25.418 Y90.008
X24.68 Y90.003
X23.944 Y89.957
X23.211 Y89.872
X22.484 Y89.748
X21.764 Y89.585
X21.054 Y89.384
X20.357 Y89.143
X19.673 Y88.866
X19.005 Y88.553
X18.354 Y88.205
X17.724 Y87.822
X17.114 Y87.406
X16.528 Y86.957
X15.968 Y86.478
X15.433 Y85.969
X14.926 Y85.433
X14.449 Y84.87
X14.003 Y84.283
X13.589 Y83.672
X13.208 Y83.04
X12.86 Y82.39
X12.548 Y81.721
X12.271 Y81.037
X12.031 Y80.34
X11.828 Y79.63
X11.663 Y78.911
X11.536 Y78.184
X11.448 Y77.452
X11.399 Y76.716
X11.39 Y75.978
X11.42 Y75.241
X11.489 Y74.506
X11.596 Y73.776
X11.741 Y73.053
X11.924 Y72.338
X12.145 Y71.634
X12.402 Y70.942
X12.695 Y70.265
X13.023 Y69.604
X13.386 Y68.962
X13.783 Y68.34
X14.212 Y67.74
X14.673 Y67.163
X15.162 Y66.612
X15.681 Y66.086
X16.225 Y65.589
X16.796 Y65.121
X17.39 Y64.683
X18.006 Y64.277
X18.642 Y63.904
X19.297 Y63.564
X19.97 Y63.261
X20.658 Y62.994
X21.358 Y62.763
X22.07 Y62.569
X22.792 Y62.414
X23.52 Y62.295
X24.253 Y62.216
X24.99 Y62.174
X25.728 Y62.171
X26.465 Y62.207
X27.199 Y62.281
X27.928 Y62.394
X28.65 Y62.545
X29.363 Y62.735
X30.065 Y62.961
X30.755 Y63.223
X31.43 Y63.521
X32.089 Y63.852
X32.73 Y64.218
X33.352 Y64.615
X33.952 Y65.044
X34.53 Y65.503
X35.084 Y65.99
X35.612 Y66.506
X36.112 Y67.048
X36.584 Y67.615
X37.027 Y68.205
X37.44 Y68.816
X37.822 Y69.448
X38.171 Y70.098
X38.488 Y70.764
X38.77 Y71.446
X39.019 Y72.14
X39.232 Y72.847
X39.409 Y73.563
X39.549 Y74.287
X39.652 Y75.018
X39.717 Y75.753
X39.745 Y76.49
X39.736 Y77.228
X39.689 Y77.964
X39.605 Y78.697
X39.485 Y79.425
X39.327 Y80.146
X39.134 Y80.858
X38.904 Y81.559
X38.64 Y82.248
X38.34 Y82.922
X38.005 Y83.58
X37.637 Y84.219
X37.238 Y84.84
X36.808 Y85.439
X36.347 Y86.016
X35.859 Y86.569
X35.343 Y87.096
X34.801 Y87.597
X34.235 Y88.07
X33.646 Y88.515
X33.035 Y88.928
X32.404 Y89.31
X31.754 Y89.659
X31.087 Y89.975
X30.405 Y90.256
X29.71 Y90.504
X29.003 Y90.716
X28.287 Y90.892
X27.562 Y91.032
X26.832 Y91.136
X26.097 Y91.204
X25.36 Y91.234
X24.622 Y91.228
X23.886 Y91.184
X23.152 Y91.103
X22.424 Y90.985
X21.702 Y90.832
X20.989 Y90.643
X20.286 Y90.419
X19.595 Y90.161
X18.917 Y89.869
X18.254 Y89.545
X17.608 Y89.189
X16.98 Y88.801
X16.372 Y88.383
X15.786 Y87.935
X15.223 Y87.458
X14.684 Y86.954
X14.171 Y86.424
X13.685 Y85.87
X13.226 Y85.292
X12.796 Y84.692
X12.395 Y84.073
X12.025 Y83.434
X11.686 Y82.779
X11.379 Y82.108
X11.105 Y81.423
X10.865 Y80.726
X10.66 Y80.017
X10.49 Y79.299
X10.355 Y78.573
X10.256 Y77.842
X10.193 Y77.107
X10.166 Y76.37
X10.174 Y75.632
X10.218 Y74.895
X10.297 Y74.162
X10.412 Y73.433
X10.561 Y72.71
X10.745 Y71.996
X10.964 Y71.291
X11.217 Y70.598
X11.504 Y69.919
X11.824 Y69.254
X12.175 Y68.605
X12.558 Y67.974
X12.971 Y67.363
X13.412 Y66.772
X13.882 Y66.202
X14.378 Y65.657
X14.9 Y65.135
X15.446 Y64.639
X16.016 Y64.17
X16.609 Y63.731
X17.222 Y63.32
X17.854 Y62.94
X18.504 Y62.59
X19.17 Y62.273
X19.851 Y61.988
X20.544 Y61.737
X21.249 Y61.519
X21.964 Y61.335
X22.686 Y61.186
X23.415 Y61.071
X24.149 Y60.992
X24.885 Y60.949
X25.623 Y60.941
X26.36 Y60.97
X27.095 Y61.034
X27.826 Y61.134
X28.552 Y61.268
X29.27 Y61.438
X29.979 Y61.641
X30.678 Y61.878
X31.364 Y62.148
X32.038 Y62.45
X32.696 Y62.783
X33.337 Y63.148
X33.96 Y63.543
X34.564 Y63.968
X35.147 Y64.42
X35.708 Y64.899
X36.245 Y65.404
X36.759 Y65.934
X37.247 Y66.488
X37.709 Y67.063
X38.144 Y67.659
X38.55 Y68.275
X38.928 Y68.908
X39.277 Y69.559
X39.594 Y70.225
X39.879 Y70.905
X40.133 Y71.598
X40.354 Y72.302
X40.542 Y73.015
X40.696 Y73.737
X40.817 Y74.465
X40.903 Y75.198
X40.955 Y75.934
X40.973 Y76.671
X40.957 Y77.409
X40.906 Y78.145
X40.822 Y78.878
X40.702 Y79.606
X40.548 Y80.327
X40.36 Y81.041
X40.139 Y81.745
X39.885 Y82.438
X39.599 Y83.118
X39.282 Y83.784
X38.933 Y84.434
X38.555 Y85.067
X38.147 Y85.683
X37.712 Y86.278
X37.249 Y86.853
X36.76 Y87.405
X36.245 Y87.934
X35.706 Y88.438
X35.144 Y88.916
X34.561 Y89.367
X33.957 Y89.791
X33.334 Y90.186
X32.693 Y90.552
X32.036 Y90.887
X31.364 Y91.192
X30.678 Y91.465
X29.981 Y91.707
X29.274 Y91.916
X28.557 Y92.092
X27.833 Y92.234
X27.103 Y92.342
X26.369 Y92.416
X25.632 Y92.456
X24.895 Y92.462
X24.157 Y92.433
X23.422 Y92.371
X22.691 Y92.275
X21.964 Y92.146
X21.245 Y91.984
X20.533 Y91.789
X19.831 Y91.562
X19.14 Y91.304
X18.461 Y91.014
X17.797 Y90.693
X17.148 Y90.342
X16.515 Y89.963
X15.901 Y89.554
X15.305 Y89.118
X14.731 Y88.655
X14.178 Y88.167
X13.648 Y87.654
X13.141 Y87.117
X12.66 Y86.558
X12.203 Y85.978
X11.774 Y85.379
X11.372 Y84.76
X10.999 Y84.123
X10.655 Y83.47
X10.341 Y82.803
X10.057 Y82.122
X9.804 Y81.429
X9.582 Y80.725
X9.393 Y80.012
X9.236 Y79.291
X9.111 Y78.564
X9.02 Y77.832
X8.961 Y77.096
X8.935 Y76.359
X8.942 Y75.621
X8.984 Y74.884
X9.058 Y74.15
X9.165 Y73.42
X9.305 Y72.696
X9.476 Y71.978
X9.68 Y71.269
X9.916 Y70.57
X10.183 Y69.882
X10.48 Y69.207
X10.807 Y68.545
X11.163 Y67.899
X11.548 Y67.27
X11.961 Y66.658
X12.401 Y66.066
X12.867 Y65.495
X13.359 Y64.944
X13.874 Y64.416
X14.413 Y63.912
X14.973 Y63.432
X15.555 Y62.978
X16.156 Y62.551
X16.776 Y62.15
X17.413 Y61.778
X18.066 Y61.435
X18.734 Y61.121
X19.415 Y60.837
X20.108 Y60.584
X20.812 Y60.364
X21.525 Y60.175
X22.246 Y60.017
X22.973 Y59.892
X23.705 Y59.8
X24.441 Y59.74
X25.178 Y59.714
X25.916 Y59.72
X26.653 Y59.759
X27.387 Y59.831
X28.117 Y59.935
X28.842 Y60.072
X29.561 Y60.241
X30.27 Y60.442
X30.97 Y60.675
X31.66 Y60.939
X32.336 Y61.232
X33. Y61.555
X33.648 Y61.907
X34.281 Y62.287
X34.896 Y62.694
X35.493 Y63.128
X36.07 Y63.588
X36.627 Y64.072
X37.162 Y64.579
X37.675 Y65.11
X38.164 Y65.663
X38.628 Y66.236
X39.066 Y66.829
X39.479 Y67.441
X39.865 Y68.07
X40.224 Y68.714
X40.555 Y69.374
X40.857 Y70.047
X41.13 Y70.733
X41.373 Y71.429
X41.585 Y72.136
X41.767 Y72.851
X41.919 Y73.573
X42.038 Y74.301
X42.126 Y75.034
X42.181 Y75.769
X42.204 Y76.507
X42.195 Y77.244
X42.155 Y77.981
X42.083 Y78.715
X41.978 Y79.446
X41.842 Y80.171
X41.675 Y80.89
X41.477 Y81.6
X41.248 Y82.302
X40.989 Y82.993
X40.701 Y83.672
X40.383 Y84.338
X40.035 Y84.989
X39.66 Y85.624
X39.257 Y86.242
X38.828 Y86.842
X38.374 Y87.424
X37.895 Y87.985
X37.392 Y88.525
X36.866 Y89.042
X36.318 Y89.536
X35.75 Y90.007
X35.162 Y90.452
X34.555 Y90.872
X33.93 Y91.265
X33.29 Y91.63
X32.633 Y91.967
X31.963 Y92.275
X31.28 Y92.554
X30.585 Y92.804
X29.881 Y93.024
X29.168 Y93.213
X28.447 Y93.371
X27.72 Y93.497
X26.989 Y93.593
X26.254 Y93.657
X25.517 Y93.69
X24.779 Y93.691
X24.042 Y93.661
X23.306 Y93.599
X22.575 Y93.505
X21.848 Y93.379
X21.126 Y93.223
X20.413 Y93.037
X19.707 Y92.82
X19.012 Y92.574
X18.327 Y92.299
X17.655 Y91.995
X16.996 Y91.663
X16.352 Y91.304
X15.723 Y90.917
X15.111 Y90.505
X14.517 Y90.067
X13.943 Y89.604
X13.389 Y89.117
X12.856 Y88.606
X12.346 Y88.074
X11.858 Y87.52
X11.393 Y86.947
X10.954 Y86.354
X10.539 Y85.744
X10.151 Y85.117
X9.789 Y84.474
X9.454 Y83.816
X9.146 Y83.146
X8.867 Y82.463
X8.617 Y81.768
X8.396 Y81.064
X8.206 Y80.352
X8.046 Y79.631
X7.916 Y78.905
X7.817 Y78.174
X7.749 Y77.439
X7.711 Y76.702
X7.704 Y75.965
X7.728 Y75.227
X7.783 Y74.491
X7.868 Y73.759
X7.983 Y73.03
X8.129 Y72.306
X8.304 Y71.59
X8.509 Y70.881
X8.744 Y70.182
X9.009 Y69.493
X9.302 Y68.816
X9.623 Y68.152
X9.972 Y67.501
X10.347 Y66.866
X10.748 Y66.247
X11.175 Y65.645
X11.627 Y65.062
X12.102 Y64.498
X12.601 Y63.954
X13.121 Y63.431
X13.663 Y62.93
X14.225 Y62.451
X14.806 Y61.997
X15.407 Y61.568
X16.024 Y61.165
X16.659 Y60.788
X17.308 Y60.437
X17.971 Y60.114
X18.647 Y59.819
X19.335 Y59.552
X20.033 Y59.314
X20.741 Y59.105
X21.457 Y58.926
X22.179 Y58.776
X22.907 Y58.656
X23.64 Y58.567
X24.375 Y58.508
X25.112 Y58.48
X25.85 Y58.484
X26.587 Y58.518
X27.322 Y58.583
X28.054 Y58.678
X28.781 Y58.803
X29.502 Y58.958
X30.216 Y59.143
X30.922 Y59.358
X31.619 Y59.601
X32.305 Y59.872
X32.979 Y60.172
X33.641 Y60.498
X34.289 Y60.851
X34.921 Y61.231
X35.538 Y61.637
X36.137 Y62.068
X36.717 Y62.523
X37.279 Y63.001
X37.822 Y63.501
X38.343 Y64.023
X38.843 Y64.566
X39.321 Y65.128
X39.775 Y65.709
X40.206 Y66.308
X40.612 Y66.924
X40.993 Y67.556
X41.349 Y68.202
X41.679 Y68.862
X41.982 Y69.535
X42.256 Y70.22
X42.503 Y70.915
X42.722 Y71.62
X42.912 Y72.333
X43.073 Y73.053
X43.205 Y73.779
X43.308 Y74.509
X43.381 Y75.243
X43.424 Y75.98
X43.437 Y76.718
X43.421 Y77.455
X43.375 Y78.192
X43.3 Y78.926
X43.195 Y79.656
X43.06 Y80.381
X42.895 Y81.101
X42.701 Y81.812
X42.479 Y82.516
X42.228 Y83.21
X41.95 Y83.893
X41.644 Y84.564
X41.311 Y85.223
X40.951 Y85.867
X40.566 Y86.496
X40.156 Y87.11
X39.721 Y87.706
X39.263 Y88.284
X38.782 Y88.844
X38.279 Y89.384
X37.754 Y89.902
X37.209 Y90.399
X36.643 Y90.873
X36.059 Y91.324
X35.458 Y91.751
X34.839 Y92.153
X34.205 Y92.531
X33.557 Y92.882
X32.894 Y93.207
X32.219 Y93.505
X31.533 Y93.776
X30.837 Y94.02
X30.131 Y94.235
X29.417 Y94.422
X28.697 Y94.58
X27.97 Y94.709
X27.239 Y94.808
X26.504 Y94.877
X25.768 Y94.917
X25.03 Y94.928
X24.292 Y94.909
X23.556 Y94.861
X22.822 Y94.783
X22.092 Y94.676
X21.367 Y94.54
X20.648 Y94.376
X19.936 Y94.183
X19.231 Y93.963
X18.537 Y93.715
X17.852 Y93.44
X17.179 Y93.137
X16.519 Y92.808
X15.872 Y92.453
X15.24 Y92.073
X14.623 Y91.668
X14.022 Y91.239
X13.44 Y90.787
X12.875 Y90.312
X12.33 Y89.814
X11.805 Y89.296
X11.3 Y88.758
X10.817 Y88.2
X10.357 Y87.624
X9.919 Y87.03
X9.504 Y86.42
X9.115 Y85.793
X8.75 Y85.152
X8.411 Y84.496
X8.098 Y83.828
X7.811 Y83.149
X7.55 Y82.458
X7.317 Y81.758
X7.112 Y81.049
X6.935 Y80.333
X6.786 Y79.611
X6.666 Y78.883
X6.573 Y78.151
X6.51 Y77.416
X6.475 Y76.679
X6.468 Y75.941
X6.491 Y75.203
X6.544 Y74.467
X6.625 Y73.734
X6.734 Y73.004
X6.871 Y72.28
X7.037 Y71.561
X7.23 Y70.849
X7.452 Y70.145
X7.7 Y69.45
X7.976 Y68.766
X8.278 Y68.092
X8.606 Y67.432
X8.959 Y66.784
X9.337 Y66.15
X9.74 Y65.532
X10.167 Y64.93
X10.617 Y64.345
X11.089 Y63.779
X11.584 Y63.231
X12.099 Y62.703
X12.634 Y62.195
X13.189 Y61.708
X13.762 Y61.243
X14.352 Y60.802
X14.96 Y60.383
X15.583 Y59.988
X16.222 Y59.618
X16.874 Y59.273
X17.539 Y58.954
X18.216 Y58.66
X18.904 Y58.393
X19.602 Y58.154
X20.308 Y57.942
X21.023 Y57.758
X21.744 Y57.602
X22.47 Y57.474
X23.201 Y57.373
X23.936 Y57.302
X24.672 Y57.259
X25.41 Y57.245
X26.148 Y57.259
X26.884 Y57.302
X27.619 Y57.374
X28.35 Y57.474
X29.076 Y57.602
X29.797 Y57.758
X30.512 Y57.942
X31.219 Y58.154
X31.916 Y58.393
X32.605 Y58.659
X33.282 Y58.951
X33.948 Y59.269
X34.601 Y59.612
X35.241 Y59.98
X35.866 Y60.372
X36.476 Y60.787
X37.069 Y61.226
X37.645 Y61.687
X38.203 Y62.169
X38.743 Y62.673
X39.263 Y63.196
X39.763 Y63.738
X40.242 Y64.3
X40.698 Y64.879
X41.133 Y65.476
X41.545 Y66.088
X41.933 Y66.715
X42.298 Y67.357
X42.638 Y68.011
X42.954 Y68.678
X43.244 Y69.357
X43.508 Y70.045
X43.746 Y70.744
X43.957 Y71.451
X44.142 Y72.165
X44.3 Y72.886
X44.431 Y73.612
X44.534 Y74.342
X44.608 Y75.076
X44.655 Y75.813
X44.673 Y76.55
X44.664 Y77.288
X44.627 Y78.025
X44.562 Y78.76
X44.47 Y79.492
X44.349 Y80.22
X44.201 Y80.943
X44.026 Y81.659
X43.823 Y82.369
X43.594 Y83.07
X43.339 Y83.763
X43.058 Y84.445
X42.751 Y85.116
X42.419 Y85.774
X42.061 Y86.42
X41.679 Y87.051
X41.273 Y87.667
X40.845 Y88.268
X40.394 Y88.852
X39.922 Y89.419
X39.428 Y89.967
X38.914 Y90.496
X38.38 Y91.006
X37.828 Y91.495
X37.257 Y91.962
X36.669 Y92.408
X36.065 Y92.832
X35.446 Y93.233
X34.811 Y93.609
X34.163 Y93.962
X33.502 Y94.289
X32.829 Y94.591
X32.144 Y94.867
X31.451 Y95.118
X30.748 Y95.342
X30.037 Y95.54
X29.319 Y95.712
X28.596 Y95.855
X27.867 Y95.972
X27.135 Y96.061
X26.399 Y96.122
X25.662 Y96.156
X24.925 Y96.163
X24.187 Y96.142
X23.451 Y96.094
X22.717 Y96.017
X21.987 Y95.913
X21.261 Y95.781
X20.54 Y95.622
X19.826 Y95.437
X19.119 Y95.226
X18.42 Y94.989
X17.731 Y94.726
X17.052 Y94.438
X16.384 Y94.125
X15.728 Y93.787
X15.085 Y93.425
X14.456 Y93.039
X13.841 Y92.631
X13.242 Y92.2
X12.659 Y91.748
X12.094 Y91.273
X11.548 Y90.778
X11.02 Y90.263
X10.511 Y89.728
X10.022 Y89.175
X9.554 Y88.605
X9.107 Y88.018
X8.682 Y87.415
X8.28 Y86.796
X7.901 Y86.164
X7.545 Y85.517
X7.213 Y84.858
X6.905 Y84.188
X6.622 Y83.506
X6.364 Y82.815
X6.132 Y82.115
X5.926 Y81.406
X5.747 Y80.69
X5.594 Y79.969
X5.468 Y79.242
X5.369 Y78.51
X5.297 Y77.776
X5.251 Y77.04
X5.232 Y76.302
X5.241 Y75.564
X5.276 Y74.828
X5.339 Y74.092
X5.428 Y73.36
X5.544 Y72.631
X5.686 Y71.907
X5.855 Y71.189
X6.049 Y70.477
X6.27 Y69.773
X6.517 Y69.078
X6.79 Y68.393
X7.087 Y67.717
X7.409 Y67.054
X7.755 Y66.402
X8.125 Y65.763
X8.517 Y65.138
X8.932 Y64.529
X9.37 Y63.934
X9.829 Y63.356
X10.308 Y62.796
X10.808 Y62.253
X11.327 Y61.728
X11.864 Y61.223
X12.42 Y60.737
X12.993 Y60.273
X13.583 Y59.83
X14.189 Y59.409
X14.81 Y59.011
X15.445 Y58.635
X16.094 Y58.283
X16.754 Y57.955
X17.427 Y57.651
X18.11 Y57.372
X18.803 Y57.118
X19.504 Y56.89
X20.214 Y56.687
X20.93 Y56.511
X21.652 Y56.36
X22.38 Y56.236
X23.111 Y56.138
X23.845 Y56.067
X24.582 Y56.023
X25.319 Y56.007
X26.057 Y56.017
X26.794 Y56.055
X27.529 Y56.119
X28.261 Y56.21
X28.99 Y56.328
X29.713 Y56.471
X30.431 Y56.641
X31.142 Y56.837
X31.846 Y57.059
X32.541 Y57.306
X33.227 Y57.578
X33.903 Y57.875
X34.568 Y58.195
X35.22 Y58.539
X35.86 Y58.906
X36.486 Y59.297
X37.097 Y59.71
X37.693 Y60.145
X38.273 Y60.601
X38.837 Y61.078
X39.383 Y61.574
X39.911 Y62.089
X40.421 Y62.622
X40.911 Y63.174
X41.381 Y63.743
X41.83 Y64.328
X42.259 Y64.929
X42.666 Y65.544
X43.051 Y66.173
X43.413 Y66.816
X43.753 Y67.471
X44.069 Y68.137
X44.361 Y68.815
X44.628 Y69.503
X44.871 Y70.199
X45.089 Y70.904
X45.282 Y71.616
X45.45 Y72.335
X45.592 Y73.059
X45.708 Y73.788
X45.798 Y74.52
X45.861 Y75.255
X45.899 Y75.992
X45.91 Y76.73
X45.896 Y77.467
X45.855 Y78.204
X45.788 Y78.939
X45.696 Y79.671
X45.576 Y80.399
X45.43 Y81.122
X45.259 Y81.84
X45.062 Y82.551
X44.839 Y83.254
X44.592 Y83.949
X44.321 Y84.635
X44.025 Y85.311
X43.705 Y85.976
X43.362 Y86.629
X42.995 Y87.27
X42.606 Y87.896
X42.195 Y88.509
X41.763 Y89.107
X41.31 Y89.689
X40.836 Y90.255
X40.343 Y90.803
X39.829 Y91.334
X39.298 Y91.845
X38.748 Y92.337
X38.181 Y92.809
X37.598 Y93.261
X36.999 Y93.692
X36.385 Y94.102
X35.758 Y94.49
X35.116 Y94.855
X34.463 Y95.197
X33.797 Y95.515
X33.121 Y95.81
X32.434 Y96.08
X31.739 Y96.327
X31.035 Y96.549
X30.324 Y96.746
X29.607 Y96.917
X29.405 Y96.958
X29.356 Y96.966
X29.308 Y96.971
X29.259 Y96.972
X22.132
X21.395 Y96.936
X20.662 Y96.852
X19.938 Y96.712
X19.222 Y96.533
X18.515 Y96.321
X17.817 Y96.081
X17.129 Y95.815
X16.451 Y95.524
X15.784 Y95.209
X15.128 Y94.871
X14.485 Y94.51
X13.855 Y94.126
X13.238 Y93.721
X12.637 Y93.294
X12.05 Y92.846
X11.48 Y92.378
X10.927 Y91.89
X10.391 Y91.382
X9.873 Y90.857
X9.373 Y90.314
X8.893 Y89.754
X8.432 Y89.178
X7.991 Y88.587
X7.571 Y87.98
X7.172 Y87.359
X6.794 Y86.725
X6.439 Y86.079
X6.107 Y85.42
X5.798 Y84.75
X5.512 Y84.07
X5.25 Y83.38
X5.012 Y82.682
X4.799 Y81.975
X4.652 Y81.418
X4.638 Y81.356
X4.63 Y81.293
X4.628 Y81.229
Y72.255
X4.664 Y71.533
X4.754 Y70.845
X4.908 Y70.124
X5.108 Y69.413
X5.343 Y68.714
X5.607 Y68.025
X5.898 Y67.347
X6.213 Y66.68
X6.551 Y66.024
X6.913 Y65.381
X7.296 Y64.75
X7.7 Y64.133
X8.126 Y63.531
X8.572 Y62.943
X9.039 Y62.371
X9.524 Y61.816
X10.028 Y61.277
X10.55 Y60.756
X11.09 Y60.252
X11.646 Y59.768
X12.22 Y59.303
X12.809 Y58.859
X13.413 Y58.436
X14.032 Y58.035
X14.665 Y57.655
X15.31 Y57.296
X15.967 Y56.96
X16.635 Y56.647
X17.313 Y56.357
X18.001 Y56.09
X18.698 Y55.848
X19.402 Y55.629
X20.043 Y55.454
X20.107 Y55.439
X20.172 Y55.43
X20.238 Y55.428
X29.338
X30.075 Y55.464
X30.441 Y55.509
X31.169 Y55.63
X31.885 Y55.808
X32.59 Y56.027
X33.284 Y56.276
X33.968 Y56.554
X34.641 Y56.856
X35.303 Y57.181
X35.953 Y57.53
X36.591 Y57.901
X37.216 Y58.294
X37.827 Y58.707
X38.423 Y59.142
X39.004 Y59.596
X39.569 Y60.071
X40.118 Y60.563
X40.651 Y61.075
X41.165 Y61.603
X41.661 Y62.149
X42.139 Y62.711
X42.598 Y63.289
X43.037 Y63.882
X43.457 Y64.489
X43.856 Y65.11
X44.234 Y65.743
X44.591 Y66.389
X44.926 Y67.047
X45.238 Y67.715
X45.528 Y68.393
X45.795 Y69.081
X46.039 Y69.778
X46.139 Y70.098
X46.157 Y70.171
X46.169 Y70.244
X46.172 Y70.319
Y81.808
X46.141 Y82.431
X46.069 Y82.982
X45.918 Y83.69
X45.706 Y84.397
X45.453 Y85.09
X45.168 Y85.771
X44.855 Y86.439
X44.517 Y87.095
X44.156 Y87.739
X43.774 Y88.369
X43.37 Y88.987
X42.946 Y89.591
X42.501 Y90.18
X42.038 Y90.754
X41.555 Y91.312
X41.054 Y91.853
X40.535 Y92.377
X39.998 Y92.884
X39.445 Y93.372
X38.875 Y93.841
X38.291 Y94.291
X37.692 Y94.722
X37.078 Y95.132
X36.451 Y95.521
X35.812 Y95.888
X35.16 Y96.234
X34.497 Y96.557
X33.823 Y96.859
X33.679 Y96.918
X33.588 Y96.948
X33.494 Y96.966
X33.399 Y96.972
X29.259
G3 X29.082 Y96.399 I0.011 J-0.317
G1 X29.139 Y96.357 Z36.608
X29.193 Y96.318 Z36.631
X29.242 Y96.282 Z36.669
X29.282 Y96.252 Z36.72
X29.313 Y96.23 Z36.78
X29.332 Y96.216 Z36.847
X29.338 Y96.211 Z36.917
G0 Z43.1
X45.789 Y80.782
Z37.235
G1 Z36.917 F1016.
X45.793 Y80.789 Z36.847
X45.805 Y80.809 Z36.78
X45.824 Y80.842 Z36.72
X45.85 Y80.885 Z36.669
X45.881 Y80.937 Z36.631
X45.915 Y80.994 Z36.608
X45.951 Y81.055 Z36.6
G3 X46.172 Y81.808 I-1.36 J0.809
G1 Y85.161
X46.151 Y85.587
X46.108 Y85.914
X46.018 Y86.337
X45.862 Y86.857
X45.6 Y87.531
X45.278 Y88.194
X44.918 Y88.839
X44.529 Y89.466
X44.116 Y90.077
X43.682 Y90.674
X43.228 Y91.256
X42.756 Y91.822
X42.265 Y92.373
X41.757 Y92.909
X41.233 Y93.427
X40.692 Y93.929
X40.135 Y94.413
X39.563 Y94.88
X38.977 Y95.328
X38.378 Y95.758
X37.764 Y96.168
X37.138 Y96.558
X36.593 Y96.873
X36.476 Y96.928
X36.351 Y96.961
X36.222 Y96.972
X33.399
G3 X33.222 Y96.399 I0.011 J-0.317
G1 X33.279 Y96.357 Z36.608
X33.333 Y96.318 Z36.631
X33.382 Y96.282 Z36.669
X33.422 Y96.252 Z36.72
X33.453 Y96.23 Z36.78
X33.472 Y96.216 Z36.847
X33.478 Y96.211 Z36.917
G0 Z43.1
X45.789 Y84.134
Z37.235
G1 Z36.917 F1016.
X45.793 Y84.141 Z36.847
X45.805 Y84.161 Z36.78
X45.824 Y84.194 Z36.72
X45.85 Y84.237 Z36.669
X45.881 Y84.289 Z36.631
X45.915 Y84.346 Z36.608
X45.951 Y84.407 Z36.6
G3 X46.172 Y85.161 I-1.36 J0.809
G1 Y87.843
X46.161 Y88.081
X46.127 Y88.337
X46.058 Y88.66
X45.944 Y89.04
X45.755 Y89.526
X45.458 Y90.138
X45.084 Y90.773
X44.67 Y91.384
X44.228 Y91.975
X43.762 Y92.547
X43.277 Y93.103
X42.774 Y93.643
X42.254 Y94.166
X41.718 Y94.674
X41.167 Y95.164
X40.602 Y95.639
X40.023 Y96.095
X39.43 Y96.535
X38.991 Y96.84
X38.86 Y96.913
X38.717 Y96.957
X38.568 Y96.972
X36.222
G3 X36.019 Y96.421 I0.011 J-0.317
G1 X36.044 Y96.398
X45.595 Y87.662
X45.641 Y87.619
G3 X46.172 Y87.843 I0.214 J0.234
G1 Y90.022
X46.16 Y90.265
X46.13 Y90.494
X46.071 Y90.771
X45.979 Y91.079
X45.826 Y91.471
X45.601 Y91.935
X45.255 Y92.523
X44.831 Y93.127
X44.37 Y93.703
X43.883 Y94.258
X43.376 Y94.793
X42.85 Y95.311
X42.309 Y95.813
X41.753 Y96.297
X41.183 Y96.766
X41.116 Y96.817
X40.978 Y96.902
X40.824 Y96.955
X40.663 Y96.972
X38.568
G3 X38.365 Y96.42 I0.011 J-0.317
G1 X38.39 Y96.398
X45.595 Y89.84
X45.641 Y89.798
G3 X46.172 Y90.022 I0.214 J0.235
G1 Y92.033
X46.162 Y92.25
X46.133 Y92.468
X46.084 Y92.698
X46. Y92.978
X45.871 Y93.31
X45.68 Y93.703
X45.399 Y94.18
X44.975 Y94.784
X44.504 Y95.351
X44.002 Y95.892
X43.478 Y96.411
X43.081 Y96.777
X42.932 Y96.883
X42.761 Y96.95
X42.579 Y96.972
G3 X42.331 Y96.472 I0.011 J-0.317
G1 X42.39 Y96.388
X45.596 Y91.861
G3 X46.172 Y92.033 I0.259 J0.183
G1 Y93.877
X46.161 Y94.114
X46.136 Y94.301
X46.09 Y94.516
X46.011 Y94.781
X45.899 Y95.068
X45.728 Y95.421
X45.488 Y95.827
X45.129 Y96.338
X44.825 Y96.705
X44.665 Y96.849
X44.469 Y96.941
X44.255 Y96.972
G3 X43.991 Y96.497 I0.011 J-0.317
G1 X44.057 Y96.382
X45.58 Y93.73
G3 X45.855 Y93.57 I0.275 J0.158
X46.172 Y93.877 I0. J0.317
G1 Y95.72
X46.165 Y95.87
X46.14 Y96.051
X46.095 Y96.254
X46.038 Y96.438
X46.012 Y96.506
X45.901 Y96.696
X45.739 Y96.845
X45.541 Y96.94
X45.323 Y96.972
G3 X45.058 Y96.499 I0.011 J-0.317
G1 X45.124 Y96.382
X45.579 Y95.576
G3 X46.172 Y95.72 I0.277 J0.156
G1 Y96.642
X46.17 Y96.684
X46.162 Y96.726
X46.152 Y96.757
X46.138 Y96.788
X46.12 Y96.819
X46.097 Y96.85
X46.075 Y96.874
X46.052 Y96.894
X46.021 Y96.916
X45.991 Y96.935
X45.96 Y96.949
X45.929 Y96.96
X45.888 Y96.969
X45.846 Y96.972
X40.663
G3 X40.486 Y96.399 I0.011 J-0.317
G1 X40.543 Y96.357 Z36.608
X40.597 Y96.318 Z36.631
X40.646 Y96.282 Z36.669
X40.686 Y96.252 Z36.72
X40.717 Y96.23 Z36.78
X40.736 Y96.216 Z36.847
X40.742 Y96.211 Z36.917
G0 Z43.1
X28.312 Y55.811
Z37.235
G1 Z36.917 F1016.
X28.319 Y55.807 Z36.847
X28.339 Y55.795 Z36.78
X28.371 Y55.776 Z36.72
X28.415 Y55.75 Z36.669
X28.466 Y55.719 Z36.631
X28.524 Y55.685 Z36.608
X28.585 Y55.649 Z36.6
G3 X29.338 Y55.428 I0.809 J1.36
G1 X33.193
X33.54 Y55.445
X33.911 Y55.494
X34.38 Y55.594
X34.965 Y55.769
X35.652 Y56.037
X36.319 Y56.352
X36.969 Y56.702
X37.603 Y57.079
X38.222 Y57.48
X38.828 Y57.902
X39.418 Y58.344
X39.994 Y58.806
X40.554 Y59.285
X41.099 Y59.783
X41.628 Y60.298
X42.14 Y60.829
X42.635 Y61.376
X43.112 Y61.939
X43.571 Y62.516
X44.012 Y63.108
X44.433 Y63.714
X44.835 Y64.333
X45.217 Y64.964
X45.579 Y65.607
X45.921 Y66.26
X46.099 Y66.629
X46.139 Y66.733
X46.164 Y66.841
X46.172 Y66.951
Y70.319
G3 X45.599 Y70.496 I-0.317 J-0.011
G1 X45.557 Y70.439 Z36.608
X45.518 Y70.385 Z36.631
X45.482 Y70.336 Z36.669
X45.452 Y70.296 Z36.72
X45.43 Y70.265 Z36.78
X45.416 Y70.246 Z36.847
X45.411 Y70.24 Z36.917
G0 Z43.1
X32.166 Y55.811
Z37.235
G1 Z36.917 F1016.
X32.173 Y55.807 Z36.847
X32.193 Y55.795 Z36.78
X32.226 Y55.776 Z36.72
X32.269 Y55.75 Z36.669
X32.321 Y55.719 Z36.631
X32.379 Y55.685 Z36.608
X32.439 Y55.649 Z36.6
G3 X33.193 Y55.428 I0.809 J1.36
G1 X35.874
X36.184 Y55.443
X36.454 Y55.478
X36.799 Y55.552
X37.203 Y55.673
X37.724 Y55.876
X38.388 Y56.198
X39.024 Y56.573
X39.637 Y56.982
X40.232 Y57.418
X40.811 Y57.876
X41.373 Y58.354
X41.92 Y58.849
X42.45 Y59.362
X42.965 Y59.891
X43.463 Y60.436
X43.944 Y60.995
X44.408 Y61.568
X44.854 Y62.156
X45.283 Y62.756
X45.693 Y63.369
X46.059 Y63.953
X46.121 Y64.077
X46.16 Y64.209
X46.172 Y64.347
Y66.951
G3 X45.619 Y67.152 I-0.317 J-0.011
G1 X45.598 Y67.129
X35.148 Y55.469
X35.116 Y55.444
X35.078 Y55.432
X35.037 Y55.433
X34.999 Y55.448
X34.969 Y55.475
X34.949 Y55.51
X34.943 Y55.55
X34.951 Y55.59
X34.972 Y55.625
X35.004 Y55.651
X35.042 Y55.664
X35.083 Y55.663
X35.121 Y55.649
G3 X35.874 Y55.428 I0.809 J1.36
G1 X38.22
X38.431 Y55.438
X38.664 Y55.469
X38.954 Y55.531
X39.276 Y55.627
X39.69 Y55.788
X40.182 Y56.027
X40.818 Y56.402
X41.422 Y56.826
X42.001 Y57.283
X42.56 Y57.765
X43.1 Y58.267
X43.623 Y58.787
X44.13 Y59.323
X44.621 Y59.874
X45.096 Y60.439
X45.553 Y61.018
X45.994 Y61.61
X46.038 Y61.672
X46.112 Y61.804
X46.157 Y61.947
X46.172 Y62.097
Y64.347
G3 X45.618 Y64.546 I-0.317 J-0.011
G1 X45.598 Y64.524
X38.039 Y56.006
X37.994 Y55.956
G3 X38.22 Y55.428 I0.237 J-0.211
G1 X40.231
X40.466 Y55.439
X40.685 Y55.468
X40.929 Y55.52
X41.214 Y55.605
X41.562 Y55.741
X41.969 Y55.938
X42.472 Y56.235
X43.076 Y56.659
X43.646 Y57.127
X44.191 Y57.625
X44.715 Y58.144
X45.22 Y58.682
X45.708 Y59.236
X46.002 Y59.59
X46.095 Y59.733
X46.153 Y59.893
X46.172 Y60.063
G3 X45.662 Y60.304 I-0.317 J-0.011
G1 X45.591 Y60.249
X40.055 Y56.001
X40.049 Y55.997
G3 X40.231 Y55.428 I0.193 J-0.252
G1 X42.167
X42.354 Y55.437
X42.551 Y55.463
X42.77 Y55.509
X43.038 Y55.59
X43.337 Y55.706
X43.7 Y55.883
X44.125 Y56.132
X44.66 Y56.508
X45.227 Y56.979
X45.763 Y57.487
X45.966 Y57.699
X46.078 Y57.85
X46.149 Y58.025
X46.172 Y58.212
G3 X45.679 Y58.465 I-0.317 J-0.011
G1 X45.587 Y58.403
X42.002 Y56.009
G3 X42.167 Y55.428 I0.176 J-0.264
G1 X43.918
X44.137 Y55.438
X44.315 Y55.462
X44.53 Y55.508
X44.78 Y55.583
X45.049 Y55.687
X45.386 Y55.851
X45.74 Y56.059
X45.858 Y56.142
X45.989 Y56.26
X46.089 Y56.406
X46.151 Y56.572
X46.172 Y56.748
G3 X45.71 Y57.019 I-0.317 J-0.011
G1 X45.579 Y56.952
X43.784 Y56.027
G3 X43.918 Y55.428 I0.145 J-0.282
G1 X45.594
X45.622
X45.664
X45.814 Y55.435
X45.957 Y55.498
X46.072 Y55.604
X46.147 Y55.742
X46.172 Y55.896
G3 X46.034 Y56.233 I-0.524 J-0.018
X45.328 Y55.582 I-0.353 J-0.325
X45.664 Y55.428 I0.353 J0.325
G1 X45.846
X45.888 Y55.431
X45.929 Y55.44
X45.956 Y55.449
X45.982 Y55.461
X46.034 Y55.493
X46.066 Y55.518
X46.097 Y55.55
X46.118 Y55.578
X46.135 Y55.605
X46.148 Y55.633
X46.158 Y55.661
X46.168 Y55.703
X46.172 Y55.745
Y62.097
G3 X45.599 Y62.274 I-0.317 J-0.011
G1 X45.557 Y62.217 Z36.608
X45.518 Y62.163 Z36.631
X45.482 Y62.115 Z36.669
X45.452 Y62.074 Z36.72
X45.43 Y62.044 Z36.78
X45.416 Y62.025 Z36.847
X45.411 Y62.018 Z36.917
G0 Z43.1
X23.159 Y96.589
Z37.235
G1 Z36.917 F1016.
X23.152 Y96.593 Z36.847
X23.131 Y96.605 Z36.78
X23.099 Y96.624 Z36.72
X23.056 Y96.65 Z36.669
X23.004 Y96.681 Z36.631
X22.946 Y96.715 Z36.608
X22.886 Y96.751 Z36.6
G3 X22.132 Y96.972 I-0.809 J-1.36
G1 X17.942
X17.607 Y96.956
X17.211 Y96.904
X16.706 Y96.796
X16.073 Y96.606
X15.385 Y96.338
X14.716 Y96.027
X14.064 Y95.682
X13.426 Y95.311
X12.803 Y94.917
X12.194 Y94.5
X11.599 Y94.063
X11.02 Y93.606
X10.456 Y93.13
X9.909 Y92.635
X9.378 Y92.123
X8.863 Y91.594
X8.367 Y91.048
X7.888 Y90.487
X7.428 Y89.91
X6.987 Y89.318
X6.566 Y88.712
X6.166 Y88.093
X5.786 Y87.461
X5.426 Y86.816
X5.088 Y86.16
X4.772 Y85.494
X4.689 Y85.302
X4.655 Y85.207
X4.634 Y85.108
X4.628 Y85.007
Y81.229
G3 X5.201 Y81.052 I0.317 J0.011
G1 X5.243 Y81.109 Z36.608
X5.282 Y81.163 Z36.631
X5.318 Y81.212 Z36.669
X5.348 Y81.252 Z36.72
X5.37 Y81.283 Z36.78
X5.384 Y81.302 Z36.847
X5.389 Y81.308 Z36.917
G0 Z43.1
X18.969 Y96.589
Z37.235
G1 Z36.917 F1016.
X18.962 Y96.593 Z36.847
X18.942 Y96.605 Z36.78
X18.909 Y96.624 Z36.72
X18.866 Y96.65 Z36.669
X18.814 Y96.681 Z36.631
X18.757 Y96.715 Z36.608
X18.696 Y96.751 Z36.6
G3 X17.942 Y96.972 I-0.809 J-1.36
G1 X15.261
X14.868 Y96.953
X14.59 Y96.916
X14.234 Y96.84
X13.816 Y96.715
X13.275 Y96.504
X12.611 Y96.182
X11.974 Y95.81
X11.358 Y95.404
X10.761 Y94.971
X10.18 Y94.516
X9.616 Y94.041
X9.067 Y93.548
X8.534 Y93.037
X8.019 Y92.509
X7.52 Y91.966
X7.038 Y91.407
X6.574 Y90.834
X6.127 Y90.246
X5.7 Y89.645
X5.291 Y89.031
X4.901 Y88.404
X4.727 Y88.103
X4.672 Y87.986
X4.639 Y87.861
X4.628 Y87.732
Y85.007
G3 X5.201 Y84.83 I0.317 J0.011
G1 X5.243 Y84.887 Z36.608
X5.282 Y84.941 Z36.631
X5.318 Y84.99 Z36.669
X5.348 Y85.03 Z36.72
X5.37 Y85.061 Z36.78
X5.384 Y85.08 Z36.847
X5.389 Y85.086 Z36.917
G0 Z43.1
X16.287 Y96.589
Z37.235
G1 Z36.917 F1016.
X16.281 Y96.593 Z36.847
X16.26 Y96.605 Z36.78
X16.228 Y96.624 Z36.72
X16.185 Y96.65 Z36.669
X16.133 Y96.681 Z36.631
X16.075 Y96.715 Z36.608
X16.015 Y96.751 Z36.6
G3 X15.261 Y96.972 I-0.809 J-1.36
G1 X12.915
X12.582 Y96.956
X12.346 Y96.925
X12.051 Y96.862
X11.723 Y96.764
X11.301 Y96.599
X10.795 Y96.354
X10.16 Y95.98
X9.555 Y95.557
X8.975 Y95.101
X8.415 Y94.62
X7.873 Y94.119
X7.349 Y93.6
X6.841 Y93.065
X6.35 Y92.514
X5.876 Y91.949
X5.418 Y91.37
X4.978 Y90.778
X4.761 Y90.466
X4.688 Y90.335
X4.643 Y90.192
X4.628 Y90.042
Y87.732
G3 X5.182 Y87.532 I0.317 J0.011
G1 X5.202 Y87.554
X13.096 Y96.394
X13.14 Y96.444
G3 X12.915 Y96.972 I-0.237 J0.211
G1 X10.736
X10.54 Y96.963
X10.321 Y96.934
X10.071 Y96.88
X9.784 Y96.794
X9.43 Y96.657
X9.018 Y96.457
X8.506 Y96.156
X7.903 Y95.732
X7.332 Y95.264
X6.786 Y94.767
X6.262 Y94.248
X5.756 Y93.711
X5.268 Y93.158
X4.797 Y92.59
X4.785 Y92.575
X4.699 Y92.435
X4.646 Y92.281
X4.628 Y92.118
G3 X5.141 Y91.879 I0.317 J0.011
G1 X5.209 Y91.933
X10.913 Y96.399
X10.921 Y96.405
G3 X10.736 Y96.972 I-0.196 J0.25
G1 X8.893
X8.633 Y96.959
X8.434 Y96.933
X8.215 Y96.887
X7.945 Y96.806
X7.644 Y96.689
X7.279 Y96.511
X6.852 Y96.26
X6.314 Y95.882
X5.747 Y95.411
X5.211 Y94.904
X4.834 Y94.511
X4.722 Y94.359
X4.651 Y94.184
X4.628 Y93.998
G3 X5.122 Y93.745 I0.317 J0.011
G1 X5.213 Y93.807
X9.059 Y96.392
G3 X8.893 Y96.972 I-0.177 J0.263
G1 X7.049
X6.85 Y96.963
X6.672 Y96.939
X6.457 Y96.893
X6.204 Y96.818
X5.935 Y96.713
X5.597 Y96.549
X5.227 Y96.331
X4.942 Y96.131
X4.811 Y96.013
X4.711 Y95.866
X4.649 Y95.701
X4.628 Y95.525
G3 X5.095 Y95.256 I0.317 J0.011
G1 X5.22 Y95.323
X7.188 Y96.375
G3 X7.049 Y96.972 I-0.15 J0.28
G1 X5.373
X5.217 Y96.965
X5.03 Y96.912
X4.865 Y96.808
X4.737 Y96.662
X4.655 Y96.486
X4.628 Y96.293
G3 X5.149 Y96.061 I0.317 J0.011
G1 X5.207 Y96.11
X5.551 Y96.399
X5.567 Y96.412
G3 X5.373 Y96.972 I-0.204 J0.243
G1 X4.954
X4.912 Y96.969
X4.871 Y96.96
X4.84 Y96.949
X4.809 Y96.935
X4.779 Y96.916
X4.748 Y96.894
X4.725 Y96.874
X4.703 Y96.85
X4.68 Y96.819
X4.662 Y96.788
X4.648 Y96.757
X4.638 Y96.726
X4.63 Y96.684
X4.628 Y96.642
Y90.042
G3 X5.201 Y89.865 I0.317 J0.011
G1 X5.243 Y89.922 Z36.608
X5.282 Y89.976 Z36.631
X5.318 Y90.025 Z36.669
X5.348 Y90.066 Z36.72
X5.37 Y90.096 Z36.78
X5.384 Y90.115 Z36.847
X5.389 Y90.121 Z36.917
G0 Z43.1
X5.011 Y73.281
Z37.235
G1 Z36.917 F1016.
X5.007 Y73.274 Z36.847
X4.995 Y73.254 Z36.78
X4.976 Y73.221 Z36.72
X4.95 Y73.178 Z36.669
X4.919 Y73.127 Z36.631
X4.885 Y73.069 Z36.608
X4.849 Y73.008 Z36.6
G3 X4.628 Y72.255 I1.36 J-0.809
G1 Y68.567
X4.651 Y68.091
X4.7 Y67.723
X4.797 Y67.268
X4.974 Y66.678
X5.241 Y65.99
X5.558 Y65.324
X5.908 Y64.675
X6.286 Y64.041
X6.688 Y63.422
X7.112 Y62.818
X7.556 Y62.229
X8.019 Y61.655
X8.502 Y61.097
X9.002 Y60.554
X9.519 Y60.028
X10.053 Y59.519
X10.604 Y59.028
X11.17 Y58.555
X11.752 Y58.101
X12.348 Y57.666
X12.958 Y57.251
X13.581 Y56.857
X14.217 Y56.482
X14.865 Y56.129
X15.523 Y55.797
X16.169 Y55.496
X16.27 Y55.458
X16.374 Y55.435
X16.482 Y55.428
X20.238
G3 X20.415 Y56.001 I-0.011 J0.317
G1 X20.358 Y56.043 Z36.608
X20.304 Y56.082 Z36.631
X20.255 Y56.118 Z36.669
X20.215 Y56.148 Z36.72
X20.184 Y56.17 Z36.78
X20.165 Y56.184 Z36.847
X20.159 Y56.189 Z36.917
G0 Z43.1
X5.011 Y69.594
Z37.235
G1 Z36.917 F1016.
X5.007 Y69.587 Z36.847
X4.995 Y69.566 Z36.78
X4.976 Y69.534 Z36.72
X4.95 Y69.491 Z36.669
X4.919 Y69.439 Z36.631
X4.885 Y69.381 Z36.608
X4.849 Y69.321 Z36.6
G3 X4.628 Y68.567 I1.36 J-0.809
G1 Y65.718
X4.64 Y65.476
X4.675 Y65.206
X4.748 Y64.864
X4.869 Y64.46
X5.072 Y63.94
X5.392 Y63.28
X5.766 Y62.645
X6.176 Y62.031
X6.613 Y61.437
X7.072 Y60.86
X7.552 Y60.299
X8.049 Y59.754
X8.564 Y59.226
X9.096 Y58.714
X9.643 Y58.218
X10.205 Y57.74
X10.781 Y57.28
X11.372 Y56.838
X11.976 Y56.415
X12.593 Y56.01
X13.222 Y55.625
X13.397 Y55.525
X13.513 Y55.471
X13.637 Y55.439
X13.764 Y55.428
X16.482
G3 X16.679 Y55.984 I-0.011 J0.317
G1 X16.659 Y56.002
X4.671 Y66.443
X4.645 Y66.474
X4.632 Y66.513
Y66.554
X4.647 Y66.592
X4.674 Y66.622
X4.709 Y66.642
X4.75 Y66.649
X4.79 Y66.641
X4.825 Y66.62
X4.85 Y66.589
X4.864 Y66.55
X4.863 Y66.509
X4.849 Y66.471
G3 X4.628 Y65.718 I1.36 J-0.809
G1 Y63.539
X4.643 Y63.219
X4.674 Y62.987
X4.736 Y62.699
X4.831 Y62.38
X4.991 Y61.97
X5.227 Y61.483
X5.595 Y60.858
X6.019 Y60.254
X6.477 Y59.676
X6.961 Y59.119
X7.465 Y58.58
X7.987 Y58.058
X8.525 Y57.553
X9.078 Y57.065
X9.646 Y56.594
X10.228 Y56.14
X10.822 Y55.704
X11.033 Y55.558
X11.163 Y55.487
X11.306 Y55.442
X11.454 Y55.428
X13.764
G3 X13.963 Y55.983 I-0.011 J0.317
G1 X13.942 Y56.002
X5.206 Y63.72
X5.155 Y63.765
G3 X4.628 Y63.539 I-0.21 J-0.238
G1 Y61.36
X4.635 Y61.206
X4.664 Y60.988
X4.716 Y60.744
X4.801 Y60.461
X4.935 Y60.115
X5.131 Y59.713
X5.424 Y59.215
X5.848 Y58.611
X6.317 Y58.041
X6.816 Y57.498
X7.337 Y56.976
X7.877 Y56.473
X8.432 Y55.987
X8.909 Y55.596
X9.051 Y55.504
X9.211 Y55.447
X9.379 Y55.428
G3 X9.617 Y55.942 I-0.011 J0.317
G1 X9.564 Y56.009
X5.201 Y61.537
X5.194 Y61.545
G3 X4.628 Y61.36 I-0.249 J-0.197
G1 Y59.516
X4.637 Y59.316
X4.663 Y59.122
X4.709 Y58.905
X4.79 Y58.637
X4.905 Y58.342
X5.079 Y57.982
X5.326 Y57.563
X5.695 Y57.037
X6.166 Y56.47
X6.675 Y55.935
X6.992 Y55.632
X7.143 Y55.521
X7.317 Y55.451
X7.504 Y55.428
G3 X7.755 Y55.923 I-0.011 J0.317
G1 X7.694 Y56.013
X5.208 Y59.683
G3 X4.628 Y59.516 I-0.263 J-0.178
G1 Y57.672
X4.635 Y57.522
X4.662 Y57.339
X4.713 Y57.116
X4.791 Y56.866
X4.904 Y56.589
X5.075 Y56.249
X5.303 Y55.873
X5.404 Y55.734
X5.568 Y55.569
X5.775 Y55.464
X6.005 Y55.428
G3 X6.272 Y55.897 I-0.011 J0.317
G1 X6.205 Y56.019
X5.223 Y57.813
G3 X4.628 Y57.672 I-0.279 J-0.152
G1 Y56.071
X4.635 Y55.922
X4.703 Y55.727
X4.834 Y55.568
X5.012 Y55.464
X5.215 Y55.428
G3 X5.45 Y55.946 I-0.011 J0.317
G1 X5.399 Y56.008
X5.201 Y56.248
X5.19 Y56.262
G3 X4.628 Y56.071 I-0.245 J-0.202
G1 Y55.745
X4.632 Y55.703
X4.642 Y55.661
X4.652 Y55.633
X4.665 Y55.605
X4.682 Y55.578
X4.703 Y55.55
X4.734 Y55.518
X4.766 Y55.493
X4.818 Y55.461
X4.844 Y55.449
X4.871 Y55.44
X4.912 Y55.431
X4.954 Y55.428
X11.454
G3 X11.759 Y55.725 I-0.011 J0.317
G1 X11.76 Y55.745 Z36.601
X11.746 Y55.798 Z36.609
X11.733 Y55.849 Z36.627
X11.721 Y55.896 Z36.654
X11.69 Y55.932 Z36.694
X11.665 Y55.961 Z36.742
X11.646 Y55.983 Z36.797
X11.634 Y55.996 Z36.856
X11.63 Y56.001 Z36.917
G0 Z43.1
X26.682 Y24.607
Z39.1
G3 X24.117 Y26.193 Z38.935 I-1.283 J0.793 F1016.
X26.682 Y24.607 Z38.769 I1.283 J-0.793
X24.117 Y26.193 Z38.604 I-1.283 J0.793
X26.682 Y24.607 Z38.438 I1.283 J-0.793
X24.117 Y26.193 Z38.273 I-1.283 J0.793
X26.682 Y24.607 Z38.107 I1.283 J-0.793
X24.117 Y26.193 Z37.942 I-1.283 J0.793
X26.682 Y24.607 Z37.776 I1.283 J-0.793
X24.117 Y26.193 Z37.611 I-1.283 J0.793
X26.682 Y24.607 Z37.445 I1.283 J-0.793
X24.117 Y26.193 Z37.28 I-1.283 J0.793
X26.682 Y24.607 Z37.115 I1.283 J-0.793
X24.117 Y26.193 Z36.949 I-1.283 J0.793
X26.682 Y24.607 Z36.784 I1.283 J-0.793
X24.117 Y26.193 Z36.618 I-1.283 J0.793
X26.682 Y24.607 Z36.453 I1.283 J-0.793
X24.117 Y26.193 Z36.287 I-1.283 J0.793
X26.682 Y24.607 Z36.122 I1.283 J-0.793
X24.117 Y26.193 Z35.956 I-1.283 J0.793
X26.682 Y24.607 Z35.791 I1.283 J-0.793
X24.117 Y26.193 Z35.626 I-1.283 J0.793
X26.682 Y24.607 Z35.46 I1.283 J-0.793
X24.117 Y26.193 Z35.295 I-1.283 J0.793
X26.682 Y24.607 Z35.129 I1.283 J-0.793
X26.908 Y25.4 Z35.1 I-1.283 J0.793
X23.892 I-1.508 J0.
X26.908 I1.508 J0.
G1 X26.927 Y26.138
X26.949 Y26.227
X26.964 Y26.376
X26.952 Y26.526
X26.916 Y26.672
X26.861 Y26.811
X26.79 Y26.943
X26.704 Y27.066
X26.606 Y27.18
X26.497 Y27.283
X26.379 Y27.376
X26.254 Y27.458
X26.122 Y27.529
X25.983 Y27.589
X25.836 Y27.64
X25.683 Y27.679
X25.522 Y27.706
X25.357 Y27.721
X25.189 Y27.723
X25.018 Y27.711
X24.846 Y27.684
X24.675 Y27.644
X24.505 Y27.589
X24.339 Y27.521
X24.177 Y27.438
X24.021 Y27.342
X23.873 Y27.233
X23.733 Y27.111
X23.602 Y26.978
X23.482 Y26.834
X23.373 Y26.681
X23.276 Y26.518
X23.193 Y26.348
X23.123 Y26.171
X23.068 Y25.989
X23.027 Y25.802
X23.002 Y25.612
X22.992 Y25.421
X22.997 Y25.229
X23.017 Y25.038
X23.053 Y24.849
X23.104 Y24.663
X23.17 Y24.482
X23.25 Y24.306
X23.344 Y24.138
X23.451 Y23.977
X23.571 Y23.825
X23.703 Y23.684
X23.846 Y23.553
X23.999 Y23.435
